; generated by SuperSlicer 2.3.56 on 2023-05-08 at 00:29:47 UTC

; 

; external perimeters extrusion width = 1.26mm
; perimeters extrusion width = 1.35mm
; infill extrusion width = 1.35mm
; solid infill extrusion width = 1.35mm
; top infill extrusion width = 1.26mm
; first layer extrusion width = 1.20mm

; object:{"name":"Button_Light_Receptacle_Test","id":"Button_Light_Receptacle_Test id:0 copy 0","object_center":[150.000000,100.000001,0.000000],"boundingbox_center":[150.000000,100.000001,4.750000],"boundingbox_size":[28.400000,36.500000,9.500000]}
; plater:{"center":[150.000000,100.000001,0.000000],"boundingbox_center":[150.000000,100.000001,4.750000],"boundingbox_size":[28.400000,36.500000,9.500000]}

;TYPE:Custom
T-1

M104 S225 T1 ; set extruder temp
M140 S65 ; set bed temp

G28
G29 S1

T1

M109 S225; wait for extruder temp
M190 S65 ; wait for bed temp

M98 P"prime.g"

G21 ; set units to millimeters
G90 ; use absolute coordinates
M83 ; use relative distances for extrusion
;LAYER_CHANGE
;Z:0.25
;HEIGHT:0.25
G1 Z0.250000 F10800
;Clean the nozzle must use a hardened nozzle!
;T1
;M98 P"brush.g"
G1 E-1.25000 F6000
G1 Z1.400000 F10800
G1 X129.212 Y77.807
G1 Z0.250000
G1 E1.25000 F6000
;TYPE:Skirt
;WIDTH:1.2
G1 F1200
M204 P1000
G1 X129.691 Y77.011 E0.10235
G1 X131.068 Y75.636 E0.21450
G1 X132.736 Y74.633 E0.21450
G1 X134.597 Y74.062 E0.21450
G1 X140.709 Y73.869 E0.67404
G1 X155.737 Y73.865 E1.65622
G1 X164.385 Y73.947 E0.95323
G1 X166.656 Y74.391 E0.25499
G1 X168.300 Y75.190 E0.20149
G1 X169.721 Y76.341 E0.20149
G1 X170.847 Y77.789 E0.20226
G1 X171.612 Y79.450 E0.20149
G1 X172.012 Y81.869 E0.27023
G1 X172.012 Y118.106 E3.99379
G1 X171.831 Y119.743 E0.18157
G1 X171.316 Y121.316 E0.18234
G1 X170.222 Y123.098 E0.23056
G1 X168.709 Y124.533 E0.22979
G1 X166.870 Y125.531 E0.23056
G1 X164.836 Y126.019 E0.23056
G1 X135.836 Y126.061 E3.19614
G1 X134.249 Y125.869 E0.17620
G1 X132.731 Y125.365 E0.17620
G1 X130.928 Y124.252 E0.23361
G1 X129.475 Y122.699 E0.23438
G1 X128.481 Y120.819 E0.23438
G1 X128.018 Y118.743 E0.23438
G1 X127.989 Y81.817 E4.06976
G1 X128.178 Y80.216 E0.17774
G1 X128.684 Y78.684 E0.17774
G1 X129.119 Y77.961 E0.09308
G1 X130.086 Y78.558 F10800
G1 F1200
G1 X130.644 Y77.654 E0.11704
G1 X131.852 Y76.479 E0.18574
G1 X133.316 Y75.631 E0.18645
G1 X134.936 Y75.167 E0.18574
G1 X155.736 Y75.011 E2.29252
G1 X164.274 Y75.090 E0.94104
G1 X166.147 Y75.429 E0.20979
G1 X167.617 Y76.114 E0.17866
G1 X168.884 Y77.124 E0.17866
G1 X169.879 Y78.404 E0.17866
G1 X170.547 Y79.881 E0.17866
G1 X170.866 Y81.894 E0.22462
G1 X170.866 Y118.102 E3.99055
G1 X170.702 Y119.540 E0.15952
G1 X170.241 Y120.912 E0.15952
G1 X169.282 Y122.436 E0.19848
G1 X167.965 Y123.655 E0.19777
G1 X166.377 Y124.491 E0.19778
G1 X164.621 Y124.888 E0.19848
G1 X135.869 Y124.915 E3.16880
G1 X134.471 Y124.743 E0.15526
G1 X133.137 Y124.290 E0.15526
G1 X131.593 Y123.315 E0.20131
G1 X130.361 Y121.966 E0.20131
G1 X129.528 Y120.341 E0.20131
G1 X129.153 Y118.560 E0.20060
G1 X129.135 Y81.846 E4.04627
G1 X129.303 Y80.435 E0.15668
G1 X129.759 Y79.088 E0.15668
G1 X129.992 Y78.711 E0.04887
G1 X130.950 Y79.317 F10800
G1 F1200
G1 X131.585 Y78.314 E0.13095
G1 X132.622 Y77.334 E0.15718
G1 X133.864 Y76.644 E0.15653
G1 X135.237 Y76.282 E0.15653
G1 X155.736 Y76.157 E2.25931
G1 X164.181 Y76.233 E0.93077
G1 X165.646 Y76.472 E0.16364
G1 X166.930 Y77.038 E0.15459
G1 X168.037 Y77.898 E0.15459
G1 X168.905 Y79.008 E0.15524
G1 X169.473 Y80.290 E0.15459
G1 X169.719 Y81.914 E0.18105
G1 X169.719 Y118.091 E3.98717
G1 X169.576 Y119.321 E0.13648
G1 X169.175 Y120.487 E0.13583
G1 X168.362 Y121.750 E0.16557
G1 X167.248 Y122.758 E0.16557
G1 X165.910 Y123.441 E0.16557
G1 X164.440 Y123.753 E0.16557
G1 X135.900 Y123.769 E3.14548
G1 X134.700 Y123.620 E0.13324
G1 X133.564 Y123.225 E0.13260
G1 X132.287 Y122.401 E0.16751
G1 X131.269 Y121.264 E0.16815
G1 X130.590 Y119.905 E0.16751
G1 X130.292 Y118.408 E0.16815
G1 X130.281 Y81.873 E4.02665
G1 X130.428 Y80.661 E0.13454
G1 X130.825 Y79.513 E0.13389
G1 X130.853 Y79.469 E0.00574
G1 X131.886 Y79.954 F10800
G1 F1200
G1 X132.513 Y78.991 E0.12660
G1 X133.364 Y78.213 E0.12718
G1 X134.379 Y77.674 E0.12660
G1 X135.495 Y77.405 E0.12660
G1 X155.735 Y77.304 E2.23070
G1 X164.109 Y77.378 E0.92296
G1 X165.179 Y77.531 E0.11909
G1 X166.261 Y77.975 E0.12891
G1 X167.199 Y78.682 E0.12949
G1 X167.924 Y79.601 E0.12891
G1 X168.393 Y80.678 E0.12949
G1 X168.573 Y81.929 E0.13930
G1 X168.573 Y118.082 E3.98453
G1 X168.114 Y120.046 E0.22233
G1 X167.453 Y121.049 E0.13238
G1 X166.549 Y121.847 E0.13295
G1 X165.467 Y122.381 E0.13295
G1 X164.283 Y122.614 E0.13295
G1 X135.934 Y122.623 E3.12444
G1 X134.007 Y122.166 E0.21836
G1 X132.988 Y121.491 E0.13468
G1 X132.187 Y120.575 E0.13411
G1 X131.654 Y119.475 E0.13468
G1 X131.433 Y118.278 E0.13411
G1 X131.427 Y81.897 E4.00969
G1 X131.844 Y80.129 E0.20022
; INIT printing object Button_Light_Receptacle_Test id:0 copy 0
;WIPE_START
G1 F8640
G1 X132.513 Y78.991 E-0.87047
G1 X132.867 Y78.667 E-0.31703
;WIPE_END
G1 E-0.06250 F6000
G1 Z1.400000 F10800
; printing object Button_Light_Receptacle_Test id:0 copy 0
G1 X157.837 Y83.696
G1 Z0.250000
G1 E1.25000 F6000
;TYPE:Internal perimeter
G1 F1200
G1 X158.719 Y83.696 E0.09720
G1 X162.254 Y83.696 E0.38955
G1 X162.254 Y116.304 E3.59375
G1 X158.719 Y116.304 E0.38955
G1 X157.837 Y116.304 E0.09720
G1 X157.919 Y115.257 E0.11571
G1 X157.942 Y114.699 E0.06161
G1 X157.946 Y114.166 E0.05865
G1 X157.946 Y113.663 E0.05547
G1 X157.946 Y86.337 E3.01171
G1 X157.946 Y85.834 E0.05547
G1 X157.942 Y85.301 E0.05865
G1 X157.919 Y84.743 E0.06161
G1 X157.851 Y83.876 E0.09587
;WIPE_START
G1 F8640
G1 X158.719 Y83.696 E-0.58465
G1 X159.633 Y83.696 E-0.60285
;WIPE_END
G1 E-0.06250 F6000
G1 Z0.900000 F10800
G1 X139.163 Y83.696
G1 Z0.250000
G1 E1.25000 F6000
G1 F1200
G1 X139.081 Y84.743 E0.11571
G1 X139.058 Y85.301 E0.06161
G1 X139.054 Y85.834 E0.05865
G1 X139.054 Y86.337 E0.05547
G1 X139.054 Y113.663 E3.01171
G1 X139.054 Y114.166 E0.05547
G1 X139.058 Y114.699 E0.05865
G1 X139.081 Y115.257 E0.06161
G1 X139.163 Y116.304 E0.11571
G1 X137.747 Y116.304 E0.15605
G1 X137.746 Y83.696 E3.59373
G1 X138.983 Y83.696 E0.13627
G1 X140.305 Y83.800 F10800
;TYPE:External perimeter
G1 F1200
G1 X140.225 Y84.811 E0.11180
G1 X140.204 Y85.329 E0.05714
G1 X140.200 Y85.838 E0.05609
G1 X140.200 Y86.337 E0.05500
G1 X140.200 Y113.663 E3.01165
G1 X140.200 Y114.162 E0.05500
G1 X140.204 Y114.671 E0.05609
G1 X140.225 Y115.189 E0.05714
G1 X140.318 Y116.377 E0.13133
G1 X156.682 Y116.377 E1.80344
G1 X156.775 Y115.189 E0.13133
G1 X156.796 Y114.671 E0.05714
G1 X156.800 Y114.162 E0.05609
G1 X156.800 Y113.663 E0.05500
G1 X156.800 Y86.337 E3.01165
G1 X156.800 Y85.838 E0.05500
G1 X156.796 Y85.329 E0.05609
G1 X156.775 Y84.811 E0.05714
G1 X156.682 Y83.623 E0.13133
G1 X140.321 Y83.623 E1.80314
G1 X139.291 Y83.751 F10800
;WIPE_START
G1 F8640
G1 X140.225 Y84.811 E-0.78625
G1 X140.204 Y85.329 E-0.34205
G1 X140.203 Y85.419 E-0.05920
;WIPE_END
G1 E-0.06250 F6000
G1 Z0.900000 F10800
G1 X136.600 Y82.550
G1 Z0.250000
G1 E1.25000 F6000
G1 F1200
G1 X138.291 Y82.550 E0.18640
G1 X138.790 Y82.550 E0.05500
G1 X139.293 Y82.549 E0.05543
G1 X139.805 Y82.540 E0.05637
G1 X140.320 Y82.517 E0.05684
G1 X140.807 Y82.481 E0.05383
G1 X141.283 Y82.477 E0.05252
G1 X155.727 Y82.477 E1.59185
G1 X156.203 Y82.482 E0.05250
G1 X156.691 Y82.517 E0.05388
G1 X157.206 Y82.541 E0.05687
G1 X157.717 Y82.549 E0.05635
G1 X158.220 Y82.550 E0.05542
G1 X158.719 Y82.550 E0.05500
G1 X163.400 Y82.550 E0.51588
G1 X163.400 Y117.450 E3.84643
G1 X158.719 Y117.450 E0.51588
G1 X158.220 Y117.450 E0.05500
G1 X157.717 Y117.451 E0.05542
G1 X157.206 Y117.459 E0.05635
G1 X156.691 Y117.483 E0.05687
G1 X156.203 Y117.518 E0.05388
G1 X155.727 Y117.523 E0.05250
G1 X141.283 Y117.523 E1.59185
G1 X140.807 Y117.519 E0.05252
G1 X140.320 Y117.483 E0.05383
G1 X139.805 Y117.460 E0.05684
G1 X139.293 Y117.451 E0.05637
G1 X138.790 Y117.450 E0.05543
G1 X138.291 Y117.450 E0.05500
G1 X136.600 Y117.450 E0.18640
G1 X136.600 Y82.730 E3.82660
G1 X137.639 Y83.150 F10800
;WIPE_START
G1 F8640
G1 X138.291 Y82.550 E-1.12208
G1 X138.390 Y82.550 E-0.06542
;WIPE_END
G1 E-0.06250 F6000
G1 Z0.900000 F10800
G1 X159.650 Y83.983
G1 Z0.250000
G1 E1.25000 F6000
;TYPE:Solid infill
;WIDTH:1.04768
G1 F1800
G1 X161.451 Y85.784 E0.24513
G1 X161.451 Y87.405 E0.15600
G1 X158.719 Y84.673 E0.37185
G1 X158.721 Y84.702 E0.00277
G1 X158.749 Y85.824 E0.10800
G1 X158.749 Y86.324 E0.04814
G1 X161.451 Y89.027 E0.36779
G1 X161.451 Y90.648 E0.15600
G1 X158.749 Y87.945 E0.36778
G1 X158.749 Y89.566 E0.15600
G1 X161.451 Y92.269 E0.36778
G1 X161.451 Y93.890 E0.15600
G1 X158.749 Y91.188 E0.36778
G1 X158.749 Y92.809 E0.15600
G1 X161.451 Y95.511 E0.36778
G1 X161.451 Y97.133 E0.15600
G1 X158.749 Y94.430 E0.36778
G1 X158.749 Y96.051 E0.15600
G1 X161.451 Y98.754 E0.36777
G1 X161.451 Y100.375 E0.15600
G1 X158.749 Y97.672 E0.36777
G1 X158.749 Y99.294 E0.15600
G1 X161.451 Y101.996 E0.36777
G1 X161.451 Y103.617 E0.15600
G1 X158.749 Y100.915 E0.36777
G1 X158.749 Y102.536 E0.15600
G1 X161.451 Y105.238 E0.36777
G1 X161.451 Y106.860 E0.15600
G1 X158.749 Y104.157 E0.36776
G1 X158.749 Y105.778 E0.15600
G1 X161.451 Y108.481 E0.36776
G1 X161.451 Y110.102 E0.15600
G1 X158.749 Y107.399 E0.36776
G1 X158.749 Y109.021 E0.15600
G1 X161.451 Y111.723 E0.36776
G1 X161.451 Y113.344 E0.15600
G1 X158.749 Y110.642 E0.36776
G1 X158.749 Y112.263 E0.15600
G1 X161.451 Y114.966 E0.36775
G1 X161.451 Y115.501 E0.05155
G1 X160.366 Y115.501 E0.10445
G1 X158.748 Y113.883 E0.22016
G1 X158.744 Y114.717 E0.08018
G1 X158.720 Y115.305 E0.05666
G1 X158.708 Y115.465 E0.01541
G1 X159.260 Y116.017 E0.07520
; INIT stop printing object Button_Light_Receptacle_Test id:0 copy 0
;LAYER_CHANGE
;Z:1
;HEIGHT:0.75
; stop printing object Button_Light_Receptacle_Test id:0 copy 0
G1 Z1.000000 F10800
;Clean the nozzle must use a hardened nozzle!
;T1
;M98 P"brush.g"
M104 S220 T1 ; set temperature
; INIT printing object Button_Light_Receptacle_Test id:0 copy 0
G1 E-1.25000 F6000
G1 Z1.650000 F10800
; printing object Button_Light_Receptacle_Test id:0 copy 0
G1 X139.226 Y116.476
G1 Z1.000000
G1 E1.25000 F6000
;TYPE:Internal perimeter
;WIDTH:1.35
G1 F3600
M204 P800
G1 X137.574 Y116.476 E0.56653
G1 X137.574 Y83.524 E11.30101
G1 X139.226 Y83.524 E0.56653
G1 X139.226 Y116.296 E11.23928
;WIPE_START
G1 F8640
M204 P1000
G1 X137.574 Y116.476 E-1.09625
G1 X137.574 Y116.338 E-0.09125
;WIPE_END
G1 E-0.06250 F6000
G1 Z1.650000 F10800
G1 X157.774 Y116.296
G1 Z1.000000
G1 E1.25000 F6000
G1 F3600
M204 P800
G1 X157.774 Y83.524 E11.23928
G1 X162.426 Y83.524 E1.59539
G1 X162.426 Y116.476 E11.30101
G1 X157.774 Y116.476 E1.59539
M204 P1000
G1 X156.630 Y116.280 F10800
;TYPE:External perimeter
;WIDTH:1.26
G1 F2400
M204 P800
G1 X156.630 Y83.720 E10.32139
G1 X140.370 Y83.720 E5.15436
G1 X140.370 Y116.280 E10.32139
G1 X156.450 Y116.280 E5.09730
M204 P1000
G1 X157.830 Y116.280 F10800
;WIPE_START
G1 F8640
G1 X156.460 Y114.480 E-1.18750
;WIPE_END
G1 E-0.06250 F6000
G1 Z1.650000 F10800
G1 X163.570 Y117.620
G1 Z1.000000
G1 E1.25000 F6000
G1 F2400
M204 P800
G1 X136.430 Y117.620 E8.60327
G1 X136.430 Y82.380 E11.17094
G1 X163.570 Y82.380 E8.60327
G1 X163.570 Y117.440 E11.11388
M204 P1000
G1 X162.531 Y117.020 F10800
;WIPE_START
G1 F8640
G1 X161.770 Y117.452 E-1.18750
;WIPE_END
G1 E-0.06250 F6000
G1 Z1.650000 F10800
G1 X158.071 Y85.883
G1 Z1.000000
G1 E1.25000 F6000
;TYPE:Solid infill
;WIDTH:1.18792
G1 F2400
G1 X159.598 Y84.356 E0.65143
G1 X161.279 Y84.356 E0.50746
G1 X158.606 Y87.029 E1.14074
G1 X158.606 Y88.711 E0.50746
G1 X161.594 Y85.724 E1.27490
G1 X161.594 Y87.405 E0.50746
G1 X158.606 Y90.392 E1.27490
G1 X158.606 Y92.074 E0.50746
G1 X161.594 Y89.087 E1.27490
G1 X161.594 Y90.768 E0.50746
G1 X158.606 Y93.756 E1.27490
G1 X158.606 Y95.437 E0.50746
G1 X161.594 Y92.450 E1.27490
G1 X161.594 Y94.131 E0.50746
G1 X158.606 Y97.119 E1.27490
G1 X158.606 Y98.800 E0.50746
G1 X161.594 Y95.813 E1.27490
G1 X161.594 Y97.495 E0.50746
G1 X158.606 Y100.482 E1.27490
G1 X158.606 Y102.163 E0.50746
G1 X161.594 Y99.176 E1.27490
G1 X161.594 Y100.858 E0.50746
G1 X158.606 Y103.845 E1.27490
G1 X158.606 Y105.527 E0.50746
G1 X161.594 Y102.539 E1.27490
G1 X161.594 Y104.221 E0.50746
G1 X158.606 Y107.208 E1.27490
G1 X158.606 Y108.890 E0.50746
G1 X161.594 Y105.902 E1.27490
G1 X161.594 Y107.584 E0.50746
G1 X158.606 Y110.571 E1.27490
G1 X158.606 Y112.253 E0.50746
G1 X161.594 Y109.266 E1.27490
G1 X161.594 Y110.947 E0.50746
G1 X158.606 Y113.934 E1.27490
G1 X158.606 Y115.616 E0.50746
M106 S99.45
G1 X161.594 Y112.629 E1.27490
G1 X161.594 Y114.310 E0.50746
G1 X159.725 Y116.179 E0.79742
;WIPE_START
G1 F8640
G1 X160.998 Y114.906 E-1.18750
;WIPE_END
G1 E-0.06250 F6000
G1 Z1.650000 F10800
G1 X138.750 Y86.383
G1 Z1.000000
G1 E1.25000 F6000
;TYPE:Internal infill
;WIDTH:1.35
G1 F3600
G1 X138.750 Y84.000 E0.81747
G1 X138.050 Y84.000 E0.24030
G1 X138.050 Y88.050 E1.38897
G1 X138.750 Y88.750 E0.33983
G1 X138.750 Y94.434 E1.94924
G1 X138.050 Y95.135 E0.33983
G1 X138.050 Y104.865 E3.33718
G1 X138.750 Y105.566 E0.33983
G1 X138.750 Y111.250 E1.94923
G1 X138.050 Y111.950 E0.33983
G1 X138.050 Y116.000 E1.38897
G1 X138.750 Y116.000 E0.24030
G1 X138.750 Y113.617 E0.81747
; INIT stop printing object Button_Light_Receptacle_Test id:0 copy 0
M106 S99.45
;LAYER_CHANGE
;Z:1.75
;HEIGHT:0.75
; stop printing object Button_Light_Receptacle_Test id:0 copy 0
G1 Z1.750000 F10800
;Clean the nozzle must use a hardened nozzle!
;T1
;M98 P"brush.g"
; INIT printing object Button_Light_Receptacle_Test id:0 copy 0
G1 E-1.25000 F6000
G1 Z2.400000 F10800
; printing object Button_Light_Receptacle_Test id:0 copy 0
G1 X139.226 Y116.476
G1 Z1.750000
G1 E1.25000 F6000
;TYPE:Internal perimeter
G1 F2099
M204 P800
G1 X137.574 Y116.476 E0.56653
G1 X137.574 Y83.524 E11.30101
G1 X139.226 Y83.524 E0.56653
G1 X139.226 Y116.296 E11.23928
;WIPE_START
G1 F8640
M204 P1000
G1 X137.574 Y116.476 E-1.09625
G1 X137.574 Y116.338 E-0.09125
;WIPE_END
G1 E-0.06250 F6000
G1 Z2.400000 F10800
G1 X157.774 Y116.296
G1 Z1.750000
G1 E1.25000 F6000
G1 F2099
M204 P800
G1 X157.774 Y83.524 E11.23928
G1 X162.426 Y83.524 E1.59539
G1 X162.426 Y116.476 E11.30101
G1 X157.774 Y116.476 E1.59539
M204 P1000
G1 X156.630 Y116.280 F10800
;TYPE:External perimeter
;WIDTH:1.26
G1 F2099
M204 P800
G1 X156.630 Y83.720 E10.32139
G1 X140.370 Y83.720 E5.15436
G1 X140.370 Y116.280 E10.32139
G1 X156.450 Y116.280 E5.09730
M204 P1000
G1 X157.830 Y116.280 F10800
;WIPE_START
G1 F8640
G1 X156.460 Y114.480 E-1.18750
;WIPE_END
G1 E-0.06250 F6000
G1 Z2.400000 F10800
G1 X163.570 Y117.620
G1 Z1.750000
G1 E1.25000 F6000
G1 F2099
M204 P800
G1 X136.430 Y117.620 E8.60327
G1 X136.430 Y82.380 E11.17094
G1 X163.570 Y82.380 E8.60327
G1 X163.570 Y117.440 E11.11388
M204 P1000
G1 X162.531 Y117.020 F10800
;WIPE_START
G1 F8640
G1 X161.770 Y117.452 E-1.18750
;WIPE_END
G1 E-0.06250 F6000
G1 Z2.400000 F10800
G1 X158.866 Y116.000
G1 Z1.750000
G1 E1.25000 F6000
;TYPE:Internal infill
;WIDTH:1.35
G1 F2099
G1 X161.950 Y116.000 E1.05777
G1 X161.950 Y111.950 E1.38897
G1 X158.250 Y108.250 E1.79487
G1 X158.250 Y108.566 E0.10850
G1 X161.950 Y104.865 E1.79487
G1 X161.950 Y95.135 E3.33718
G1 X158.250 Y91.434 E1.79487
G1 X158.250 Y91.750 E0.10850
G1 X161.950 Y88.050 E1.79487
G1 X161.950 Y84.000 E1.38897
G1 X158.866 Y84.000 E1.05777
;WIPE_START
G1 F8640
G1 X160.666 Y84.000 E-1.18750
;WIPE_END
G1 E-0.06250 F6000
G1 Z2.400000 F10800
G1 X138.750 Y86.383
G1 Z1.750000
G1 E1.25000 F6000
G1 F2099
G1 X138.750 Y84.000 E0.81747
G1 X138.050 Y84.000 E0.24030
G1 X138.050 Y88.050 E1.38897
G1 X138.750 Y88.750 E0.33984
G1 X138.750 Y94.434 E1.94923
G1 X138.050 Y95.135 E0.33984
G1 X138.050 Y104.865 E3.33718
G1 X138.750 Y105.566 E0.33984
G1 X138.750 Y111.250 E1.94923
G1 X138.050 Y111.950 E0.33984
G1 X138.050 Y116.000 E1.38897
G1 X138.750 Y116.000 E0.24030
G1 X138.750 Y113.617 E0.81747
; INIT stop printing object Button_Light_Receptacle_Test id:0 copy 0
;LAYER_CHANGE
;Z:2.5
;HEIGHT:0.75
; stop printing object Button_Light_Receptacle_Test id:0 copy 0
G1 Z2.500000 F10800
;Clean the nozzle must use a hardened nozzle!
;T1
;M98 P"brush.g"
