; generated by SuperSlicer 2.3.56 on 2023-05-08 at 02:00:13 UTC

; 

; external perimeters extrusion width = 1.26mm
; perimeters extrusion width = 1.35mm
; infill extrusion width = 1.35mm
; solid infill extrusion width = 1.35mm
; top infill extrusion width = 1.26mm
; first layer extrusion width = 1.20mm

; object:{"name":"Button_Light_Receptacle_Test","id":"Button_Light_Receptacle_Test id:0 copy 0","object_center":[150.000000,100.000000,0.000000],"boundingbox_center":[150.000000,100.000000,8.000000],"boundingbox_size":[28.400000,36.500000,16.000000]}
; plater:{"center":[150.000000,100.000000,0.000000],"boundingbox_center":[150.000000,100.000000,8.000000],"boundingbox_size":[28.400000,36.500000,16.000000]}

;TYPE:Custom
T-1

M104 S225 T0 ; set extruder temp
M140 S65 ; set bed temp

G28
G29 S1

T0

M109 S225; wait for extruder temp
M190 S65 ; wait for bed temp

M98 P"prime.g"

G21 ; set units to millimeters
G90 ; use absolute coordinates
M83 ; use relative distances for extrusion
;LAYER_CHANGE
;Z:0.25
;HEIGHT:0.25
G1 Z0.250000 F10800
;Clean the nozzle must use a hardened nozzle!
;T0
;M98 P"brush.g"
G1 E-1.25000 F6000
G1 Z1.400000 F10800
G1 X128.874 Y78.287
G1 Z0.250000
G1 E1.25000 F6000
;TYPE:Skirt
;WIDTH:1.2
G1 F1200
G1 X129.931 Y76.719 E0.20838
G1 X131.331 Y75.439 E0.20915
G1 X132.993 Y74.523 E0.20915
G1 X134.824 Y74.025 E0.20915
G1 X158.726 Y73.865 E2.63436
G1 X164.757 Y73.974 E0.66479
G1 X167.383 Y74.687 E0.29989
G1 X168.886 Y75.600 E0.19383
G1 X170.158 Y76.824 E0.19460
G1 X171.131 Y78.298 E0.19460
G1 X171.756 Y79.942 E0.19383
G1 X172.012 Y81.899 E0.21756
G1 X172.011 Y118.169 E3.99741
G1 X171.774 Y119.989 E0.20226
G1 X171.126 Y121.713 E0.20302
G1 X169.986 Y123.375 E0.22215
G1 X168.474 Y124.697 E0.22138
G1 X166.680 Y125.601 E0.22138
G1 X164.710 Y126.031 E0.22215
G1 X135.789 Y126.059 E3.18749
G1 X134.013 Y125.812 E0.19766
G1 X132.336 Y125.175 E0.19766
G1 X130.653 Y124.017 E0.22521
G1 X129.318 Y122.470 E0.22521
G1 X128.419 Y120.643 E0.22444
G1 X128.010 Y118.641 E0.22521
G1 X127.990 Y81.782 E4.06232
G1 X128.233 Y79.984 E0.19996
G1 X128.810 Y78.455 E0.18012
G1 X129.880 Y78.869 F10800
G1 F1200
G1 X129.928 Y78.746 E0.01461
G1 X130.857 Y77.402 E0.18008
G1 X132.083 Y76.311 E0.18079
G1 X133.526 Y75.545 E0.18008
G1 X135.116 Y75.141 E0.18079
G1 X158.726 Y75.011 E2.60219
G1 X164.564 Y75.107 E0.64353
G1 X166.786 Y75.675 E0.25280
G1 X168.134 Y76.468 E0.17228
G1 X169.266 Y77.545 E0.17228
G1 X170.126 Y78.850 E0.17228
G1 X170.669 Y80.316 E0.17228
G1 X170.866 Y81.913 E0.17724
G1 X170.865 Y118.147 E3.99352
G1 X170.653 Y119.748 E0.17795
G1 X170.072 Y121.254 E0.17795
G1 X169.083 Y122.666 E0.18999
G1 X167.767 Y123.790 E0.19070
G1 X166.219 Y124.547 E0.18999
G1 X164.524 Y124.896 E0.19070
G1 X135.829 Y124.914 E3.16253
G1 X134.269 Y124.694 E0.17370
G1 X132.793 Y124.121 E0.17441
G1 X131.363 Y123.114 E0.19282
G1 X130.234 Y121.777 E0.19282
G1 X129.479 Y120.199 E0.19282
G1 X129.148 Y118.481 E0.19282
G1 X129.135 Y81.814 E4.04118
G1 X129.352 Y80.234 E0.17583
G1 X129.815 Y79.037 E0.14138
G1 X130.879 Y79.458 F10800
G1 F1200
G1 X130.972 Y79.224 E0.02785
G1 X131.767 Y78.104 E0.15136
G1 X132.806 Y77.205 E0.15136
G1 X134.029 Y76.581 E0.15136
G1 X135.372 Y76.265 E0.15201
G1 X158.725 Y76.157 E2.57390
G1 X164.389 Y76.244 E0.62430
G1 X166.193 Y76.668 E0.20422
G1 X167.375 Y77.332 E0.14942
G1 X168.367 Y78.256 E0.14942
G1 X169.113 Y79.388 E0.14942
G1 X169.573 Y80.663 E0.14942
G1 X169.719 Y81.928 E0.14036
G1 X169.719 Y118.127 E3.98956
G1 X169.534 Y119.494 E0.15201
G1 X169.028 Y120.776 E0.15201
G1 X168.189 Y121.944 E0.15847
G1 X167.085 Y122.866 E0.15847
G1 X165.787 Y123.483 E0.15847
G1 X164.369 Y123.758 E0.15911
G1 X135.873 Y123.768 E3.14073
G1 X134.530 Y123.577 E0.14942
G1 X133.271 Y123.076 E0.14942
G1 X132.090 Y122.225 E0.16041
G1 X131.163 Y121.103 E0.16041
G1 X130.549 Y119.783 E0.16041
G1 X130.288 Y118.351 E0.16041
G1 X130.281 Y81.850 E4.02296
G1 X130.469 Y80.495 E0.15071
G1 X130.813 Y79.626 E0.10303
G1 X131.871 Y80.055 F10800
G1 F1200
G1 X132.005 Y79.724 E0.03934
G1 X132.657 Y78.830 E0.12198
G1 X133.509 Y78.115 E0.12256
G1 X134.503 Y77.629 E0.12198
G1 X135.585 Y77.396 E0.12198
G1 X158.725 Y77.304 E2.55032
G1 X164.245 Y77.383 E0.60850
G1 X165.615 Y77.671 E0.15428
G1 X166.617 Y78.200 E0.12487
G1 X167.462 Y78.962 E0.12545
G1 X168.093 Y79.910 E0.12545
G1 X168.470 Y80.984 E0.12545
G1 X168.573 Y118.103 E4.09101
G1 X168.420 Y119.225 E0.12487
G1 X167.995 Y120.276 E0.12487
G1 X167.314 Y121.201 E0.12660
G1 X166.420 Y121.930 E0.12718
G1 X165.372 Y122.413 E0.12718
G1 X164.236 Y122.617 E0.12718
G1 X135.912 Y122.622 E3.12167
G1 X134.806 Y122.465 E0.12313
G1 X133.771 Y122.043 E0.12314
G1 X132.835 Y121.351 E0.12833
G1 X132.107 Y120.449 E0.12776
G1 X131.627 Y119.388 E0.12833
G1 X131.431 Y118.240 E0.12833
G1 X131.427 Y81.881 E4.00723
G1 X131.583 Y80.764 E0.12429
G1 X131.803 Y80.222 E0.06454
; INIT printing object Button_Light_Receptacle_Test id:0 copy 0
;WIPE_START
G1 F8640
G1 X132.005 Y79.724 E-0.35421
G1 X132.657 Y78.830 E-0.73015
G1 X132.777 Y78.729 E-0.10313
;WIPE_END
G1 E-0.06250 F6000
G1 Z1.400000 F10800
; printing object Button_Light_Receptacle_Test id:0 copy 0
G1 X137.746 Y83.696
G1 Z0.250000
G1 E1.25000 F6000
;TYPE:Internal perimeter
G1 F1200
G1 X141.281 Y83.696 E0.38955
G1 X142.163 Y83.696 E0.09720
G1 X142.081 Y84.743 E0.11571
G1 X142.058 Y85.301 E0.06161
G1 X142.054 Y85.834 E0.05865
G1 X142.054 Y86.337 E0.05547
G1 X142.054 Y113.663 E3.01171
G1 X142.054 Y114.166 E0.05547
G1 X142.058 Y114.699 E0.05865
G1 X142.081 Y115.257 E0.06161
G1 X142.163 Y116.304 E0.11571
G1 X141.281 Y116.304 E0.09720
G1 X137.746 Y116.304 E0.38955
G1 X137.746 Y83.876 E3.57391
;WIPE_START
G1 F8640
G1 X139.544 Y83.785 E-1.18750
;WIPE_END
G1 E-0.06250 F6000
G1 Z0.900000 F10800
G1 X160.837 Y83.696
G1 Z0.250000
G1 E1.25000 F6000
G1 F1200
G1 X162.253 Y83.696 E0.15605
G1 X162.254 Y116.304 E3.59373
G1 X160.837 Y116.304 E0.15611
G1 X160.919 Y115.257 E0.11571
G1 X160.942 Y114.699 E0.06161
G1 X160.946 Y114.166 E0.05865
G1 X160.946 Y113.663 E0.05547
G1 X160.946 Y86.337 E3.01171
G1 X160.946 Y85.834 E0.05547
G1 X160.942 Y85.301 E0.05865
G1 X160.919 Y84.743 E0.06161
G1 X160.851 Y83.876 E0.09587
G1 X159.708 Y83.965 F10800
;TYPE:External perimeter
G1 F1200
G1 X159.682 Y83.623 E0.03782
G1 X143.318 Y83.623 E1.80344
G1 X143.225 Y84.811 E0.13133
G1 X143.204 Y85.329 E0.05714
G1 X143.200 Y85.838 E0.05609
G1 X143.200 Y86.337 E0.05500
G1 X143.200 Y113.663 E3.01165
G1 X143.200 Y114.162 E0.05500
G1 X143.204 Y114.671 E0.05609
G1 X143.225 Y115.189 E0.05714
G1 X143.318 Y116.377 E0.13133
G1 X159.682 Y116.377 E1.80344
G1 X159.775 Y115.189 E0.13133
G1 X159.796 Y114.671 E0.05714
G1 X159.800 Y114.162 E0.05609
G1 X159.800 Y113.663 E0.05500
G1 X159.800 Y86.337 E3.01165
G1 X159.800 Y85.838 E0.05500
G1 X159.796 Y85.329 E0.05609
G1 X159.775 Y84.811 E0.05714
G1 X159.723 Y84.145 E0.07367
G1 X159.991 Y83.771 F10800
;WIPE_START
G1 F8640
G1 X159.682 Y83.623 E-0.34511
G1 X158.405 Y83.623 E-0.84239
;WIPE_END
G1 E-0.06250 F6000
G1 Z0.900000 F10800
G1 X163.400 Y82.550
G1 Z0.250000
G1 E1.25000 F6000
G1 F1200
G1 X163.400 Y117.450 E3.84643
G1 X161.709 Y117.450 E0.18640
G1 X161.210 Y117.450 E0.05500
G1 X160.707 Y117.451 E0.05543
G1 X160.195 Y117.460 E0.05637
G1 X159.680 Y117.483 E0.05684
G1 X159.193 Y117.519 E0.05383
G1 X158.717 Y117.523 E0.05252
G1 X144.273 Y117.523 E1.59185
G1 X143.797 Y117.518 E0.05250
G1 X143.309 Y117.483 E0.05388
G1 X142.794 Y117.459 E0.05687
G1 X142.283 Y117.451 E0.05635
G1 X141.780 Y117.450 E0.05542
G1 X141.281 Y117.450 E0.05500
G1 X136.600 Y117.450 E0.51588
G1 X136.600 Y82.550 E3.84643
G1 X141.281 Y82.550 E0.51588
G1 X141.780 Y82.550 E0.05500
G1 X142.283 Y82.549 E0.05542
G1 X142.794 Y82.541 E0.05635
G1 X143.309 Y82.517 E0.05687
G1 X143.797 Y82.482 E0.05388
G1 X144.273 Y82.477 E0.05250
G1 X158.717 Y82.477 E1.59185
G1 X159.193 Y82.481 E0.05252
G1 X159.680 Y82.517 E0.05383
G1 X160.195 Y82.540 E0.05684
G1 X160.707 Y82.549 E0.05637
G1 X161.210 Y82.550 E0.05543
G1 X161.709 Y82.550 E0.05500
G1 X163.220 Y82.550 E0.16656
G1 X162.800 Y83.589 F10800
;WIPE_START
G1 F8640
G1 X163.229 Y84.350 E-1.18750
;WIPE_END
G1 E-0.06250 F6000
G1 Z0.900000 F10800
G1 X141.767 Y86.210
G1 Z0.250000
G1 E1.25000 F6000
;TYPE:Solid infill
;WIDTH:1.04696
G1 F1800
G1 X140.056 Y84.499 E0.23269
G1 X138.549 Y84.499 E0.14495
G1 X138.549 Y84.612 E0.01093
G1 X141.251 Y87.315 E0.36753
G1 X141.251 Y88.936 E0.15589
G1 X138.549 Y86.234 E0.36753
G1 X138.549 Y87.855 E0.15589
G1 X141.251 Y90.557 E0.36753
G1 X141.251 Y92.179 E0.15589
G1 X138.549 Y89.476 E0.36753
G1 X138.549 Y91.097 E0.15589
G1 X141.251 Y93.800 E0.36753
G1 X141.251 Y95.421 E0.15589
G1 X138.549 Y92.718 E0.36753
G1 X138.549 Y94.340 E0.15589
G1 X141.251 Y97.042 E0.36753
G1 X141.251 Y98.663 E0.15589
G1 X138.549 Y95.961 E0.36753
G1 X138.549 Y97.582 E0.15589
G1 X141.251 Y100.285 E0.36753
G1 X141.251 Y101.906 E0.15589
G1 X138.549 Y99.203 E0.36753
G1 X138.549 Y100.824 E0.15589
G1 X141.251 Y103.527 E0.36753
G1 X141.251 Y105.148 E0.15589
G1 X138.549 Y102.445 E0.36753
G1 X138.549 Y104.067 E0.15589
G1 X141.251 Y106.769 E0.36753
G1 X141.251 Y108.390 E0.15589
G1 X138.549 Y105.688 E0.36753
G1 X138.549 Y107.309 E0.15589
G1 X141.251 Y110.012 E0.36753
G1 X141.251 Y111.633 E0.15589
G1 X138.549 Y108.930 E0.36753
G1 X138.549 Y110.551 E0.15589
G1 X141.251 Y113.254 E0.36753
G1 X141.251 Y114.176 E0.08869
G1 X141.269 Y114.893 E0.06892
G1 X138.549 Y112.173 E0.36993
G1 X138.549 Y113.794 E0.15589
G1 X140.256 Y115.501 E0.23221
G1 X138.635 Y115.501 E0.15589
G1 X138.033 Y114.899 E0.08190
; INIT stop printing object Button_Light_Receptacle_Test id:0 copy 0
;LAYER_CHANGE
;Z:1
;HEIGHT:0.75
; stop printing object Button_Light_Receptacle_Test id:0 copy 0
G1 Z1.000000 F10800
;Clean the nozzle must use a hardened nozzle!
;T0
;M98 P"brush.g"
M104 S220 ; set temperature
; INIT printing object Button_Light_Receptacle_Test id:0 copy 0
; printing object Button_Light_Receptacle_Test id:0 copy 0
G1 X137.574 Y116.476
;TYPE:Internal perimeter
;WIDTH:1.35
G1 F3600
M204 P800
G1 X137.574 Y83.524 E11.30101
G1 X142.226 Y83.524 E1.59539
G1 X142.226 Y116.476 E11.30101
G1 X137.754 Y116.476 E1.53366
;WIPE_START
G1 F8640
M204 P1000
G1 X137.744 Y114.676 E-1.18750
;WIPE_END
G1 E-0.06250 F6000
G1 Z1.650000 F10800
G1 X160.774 Y116.476
G1 Z1.000000
G1 E1.25000 F6000
G1 F3600
M204 P800
G1 X160.774 Y83.524 E11.30101
G1 X162.426 Y83.524 E0.56653
G1 X162.426 Y116.476 E11.30101
G1 X160.954 Y116.476 E0.50480
M204 P1000
G1 X159.630 Y116.280 F10800
;TYPE:External perimeter
;WIDTH:1.26
G1 F2400
M204 P800
G1 X159.630 Y83.720 E10.32139
G1 X143.370 Y83.720 E5.15436
G1 X143.370 Y116.280 E10.32139
G1 X159.450 Y116.280 E5.09730
M204 P1000
G1 X160.830 Y116.280 F10800
;WIPE_START
G1 F8640
G1 X159.460 Y114.480 E-1.18750
;WIPE_END
G1 E-0.06250 F6000
G1 Z1.650000 F10800
G1 X163.570 Y117.620
G1 Z1.000000
G1 E1.25000 F6000
G1 F2400
M204 P800
G1 X136.430 Y117.620 E8.60327
G1 X136.430 Y82.380 E11.17094
G1 X163.570 Y82.380 E8.60327
G1 X163.570 Y117.440 E11.11388
M204 P1000
G1 X162.531 Y117.020 F10800
;WIPE_START
G1 F8640
G1 X161.770 Y117.452 E-1.18750
;WIPE_END
G1 E-0.06250 F6000
G1 Z1.650000 F10800
G1 X161.250 Y113.617
G1 Z1.000000
G1 E1.25000 F6000
;TYPE:Internal infill
;WIDTH:1.35
G1 F3600
G1 X161.250 Y116.000 E0.81747
G1 X161.950 Y116.000 E0.24030
G1 X161.950 Y111.950 E1.38897
G1 X161.250 Y111.250 E0.33983
G1 X161.250 Y105.566 E1.94924
G1 X161.950 Y104.865 E0.33983
G1 X161.950 Y95.135 E3.33718
G1 X161.250 Y94.434 E0.33983
G1 X161.250 Y88.750 E1.94923
G1 X161.950 Y88.050 E0.33983
G1 X161.950 Y84.000 E1.38897
G1 X161.250 Y84.000 E0.24030
G1 X161.250 Y86.383 E0.81747
;WIPE_START
G1 F8640
G1 X161.250 Y84.583 E-1.18750
;WIPE_END
G1 E-0.06250 F6000
G1 Z1.650000 F10800
G1 X139.525 Y116.179
G1 Z1.000000
G1 E1.25000 F6000
;TYPE:Solid infill
;WIDTH:1.18792
G1 F2400
G1 X141.394 Y114.310 E0.79742
G1 X141.394 Y112.629 E0.50746
G1 X138.406 Y115.616 E1.27490
G1 X138.406 Y113.934 E0.50746
G1 X141.394 Y110.947 E1.27490
G1 X141.394 Y109.266 E0.50746
G1 X138.406 Y112.253 E1.27490
G1 X138.406 Y110.571 E0.50746
G1 X141.394 Y107.584 E1.27490
G1 X141.394 Y105.902 E0.50746
G1 X138.406 Y108.890 E1.27490
G1 X138.406 Y107.208 E0.50746
G1 X141.394 Y104.221 E1.27490
G1 X141.394 Y102.539 E0.50746
G1 X138.406 Y105.527 E1.27490
G1 X138.406 Y103.845 E0.50746
G1 X141.394 Y100.858 E1.27490
G1 X141.394 Y99.176 E0.50746
G1 X138.406 Y102.163 E1.27490
G1 X138.406 Y100.482 E0.50746
G1 X141.394 Y97.495 E1.27490
G1 X141.394 Y95.813 E0.50746
G1 X138.406 Y98.800 E1.27490
G1 X138.406 Y97.119 E0.50746
M106 S99.45
G1 X141.394 Y94.131 E1.27490
G1 X141.394 Y92.450 E0.50746
G1 X138.406 Y95.437 E1.27490
G1 X138.406 Y93.756 E0.50746
G1 X141.394 Y90.768 E1.27490
G1 X141.394 Y89.087 E0.50746
G1 X138.406 Y92.074 E1.27490
G1 X138.406 Y90.392 E0.50746
G1 X141.394 Y87.405 E1.27490
G1 X141.394 Y85.724 E0.50746
G1 X138.406 Y88.711 E1.27490
G1 X138.406 Y87.029 E0.50746
G1 X141.079 Y84.356 E1.14074
G1 X139.398 Y84.356 E0.50746
G1 X137.871 Y85.883 E0.65143
; INIT stop printing object Button_Light_Receptacle_Test id:0 copy 0
M106 S99.45
;LAYER_CHANGE
;Z:1.75
;HEIGHT:0.75
; stop printing object Button_Light_Receptacle_Test id:0 copy 0
G1 Z1.750000 F10800
;Clean the nozzle must use a hardened nozzle!
;T0
;M98 P"brush.g"
; INIT printing object Button_Light_Receptacle_Test id:0 copy 0
G1 E-1.25000 F6000
G1 Z2.400000 F10800
; printing object Button_Light_Receptacle_Test id:0 copy 0
G1 X137.574 Y83.524
G1 Z1.750000
G1 E1.25000 F6000
;TYPE:Internal perimeter
;WIDTH:1.35
G1 F2090
M204 P800
G1 X142.226 Y83.524 E1.59539
G1 X142.226 Y116.476 E11.30101
G1 X137.574 Y116.476 E1.59539
G1 X137.574 Y83.704 E11.23928
;WIPE_START
G1 F8640
M204 P1000
G1 X139.373 Y83.634 E-1.18750
;WIPE_END
G1 E-0.06250 F6000
G1 Z2.400000 F10800
G1 X160.774 Y83.704
G1 Z1.750000
G1 E1.25000 F6000
G1 F2090
M204 P800
G1 X160.774 Y83.524 E0.06173
G1 X162.426 Y83.524 E0.56653
G1 X162.426 Y116.476 E11.30101
G1 X160.774 Y116.476 E0.56653
G1 X160.774 Y83.884 E11.17754
M204 P1000
G1 X159.630 Y83.884 F10800
;TYPE:External perimeter
;WIDTH:1.26
G1 F2090
M204 P800
G1 X159.630 Y83.720 E0.05200
G1 X143.370 Y83.720 E5.15436
G1 X143.370 Y116.280 E10.32139
G1 X159.630 Y116.280 E5.15436
G1 X159.630 Y84.064 E10.21233
M204 P1000
G1 X159.772 Y83.802 F10800
;WIPE_START
G1 F8640
G1 X159.630 Y83.720 E-0.22697
G1 X158.174 Y83.720 E-0.96053
;WIPE_END
G1 E-0.06250 F6000
G1 Z2.400000 F10800
G1 X163.570 Y82.380
G1 Z1.750000
G1 E1.25000 F6000
G1 F2090
M204 P800
G1 X163.570 Y117.620 E11.17094
G1 X136.430 Y117.620 E8.60327
G1 X136.430 Y82.380 E11.17094
G1 X163.390 Y82.380 E8.54622
M204 P1000
G1 X162.970 Y83.419 F10800
;WIPE_START
G1 F8640
G1 X163.399 Y84.180 E-1.18750
;WIPE_END
G1 E-0.06250 F6000
G1 Z2.400000 F10800
G1 X161.250 Y86.383
G1 Z1.750000
G1 E1.25000 F6000
;TYPE:Internal infill
;WIDTH:1.35
G1 F2090
G1 X161.250 Y84.000 E0.81747
G1 X161.950 Y84.000 E0.24030
G1 X161.950 Y88.050 E1.38897
G1 X161.250 Y88.750 E0.33984
G1 X161.250 Y94.434 E1.94923
G1 X161.950 Y95.135 E0.33984
G1 X161.950 Y104.865 E3.33718
G1 X161.250 Y105.566 E0.33984
G1 X161.250 Y111.250 E1.94923
G1 X161.950 Y111.950 E0.33984
G1 X161.950 Y116.000 E1.38897
G1 X161.250 Y116.000 E0.24030
G1 X161.250 Y113.617 E0.81747
;WIPE_START
G1 F8640
G1 X161.250 Y115.417 E-1.18750
;WIPE_END
G1 E-0.06250 F6000
G1 Z2.400000 F10800
G1 X141.134 Y116.000
G1 Z1.750000
G1 E1.25000 F6000
G1 F2090
G1 X138.050 Y116.000 E1.05777
G1 X138.050 Y111.950 E1.38897
G1 X141.750 Y108.250 E1.79487
G1 X141.750 Y108.566 E0.10850
G1 X138.050 Y104.865 E1.79487
G1 X138.050 Y95.135 E3.33718
G1 X141.750 Y91.434 E1.79487
G1 X141.750 Y91.750 E0.10850
G1 X138.050 Y88.050 E1.79487
G1 X138.050 Y84.000 E1.38897
G1 X141.134 Y84.000 E1.05777
; INIT stop printing object Button_Light_Receptacle_Test id:0 copy 0
;LAYER_CHANGE
;Z:2.5
;HEIGHT:0.75
; stop printing object Button_Light_Receptacle_Test id:0 copy 0
G1 Z2.500000 F10800
;Clean the nozzle must use a hardened nozzle!
;T0
;M98 P"brush.g"
; INIT printing object Button_Light_Receptacle_Test id:0 copy 0
; printing object Button_Light_Receptacle_Test id:0 copy 0
G1 X142.226 Y83.524
;TYPE:Internal perimeter
G1 F1953
M204 P800
