; generated by SuperSlicer 2.3.56 on 2023-05-08 at 02:34:08 UTC

; 

; external perimeters extrusion width = 1.26mm
; perimeters extrusion width = 1.35mm
; infill extrusion width = 1.35mm
; solid infill extrusion width = 1.35mm
; top infill extrusion width = 1.26mm
; first layer extrusion width = 1.20mm

; object:{"name":"Receptacle_Test_1","id":"Receptacle_Test_1 id:0 copy 0","object_center":[240.000000,100.000000,0.000000],"boundingbox_center":[240.000000,100.000000,7.250000],"boundingbox_size":[28.299999,37.799999,14.500000]}
; plater:{"center":[240.000000,100.000000,0.000000],"boundingbox_center":[240.000000,100.000000,7.250000],"boundingbox_size":[28.299999,37.799999,14.500000]}

;TYPE:Custom
T-1

M104 S225 T0 ; set extruder temp
M140 S65 ; set bed temp

G28
G29 S1

T0

M109 S225; wait for extruder temp
M190 S65 ; wait for bed temp

M98 P"prime.g"

G21 ; set units to millimeters
G90 ; use absolute coordinates
M83 ; use relative distances for extrusion
;LAYER_CHANGE
;Z:0.25
;HEIGHT:0.25
G1 Z0.250000 F10800
;Clean the nozzle must use a hardened nozzle!
;T0
;M98 P"brush.g"
G1 E-1.25000 F6000
G1 Z1.400000 F10800
G1 X218.269 Y79.389
G1 Z0.250000
G1 E1.25000 F6000
;TYPE:Skirt
;WIDTH:1.2
G1 F1200
M204 P1000
G1 X218.877 Y77.731 E0.19460
G1 X219.931 Y76.128 E0.21144
G1 X221.330 Y74.826 E0.21068
G1 X222.998 Y73.892 E0.21068
G1 X224.840 Y73.380 E0.21068
G1 X233.722 Y73.165 E0.97926
G1 X248.696 Y73.165 E1.65024
G1 X254.772 Y73.330 E0.67000
G1 X257.380 Y74.059 E0.29837
G1 X258.877 Y74.982 E0.19383
G1 X260.137 Y76.209 E0.19383
G1 X261.102 Y77.688 E0.19460
G1 X261.717 Y79.335 E0.19383
G1 X261.962 Y81.252 E0.21297
G1 X261.961 Y118.812 E4.13962
G1 X261.737 Y120.584 E0.19690
G1 X261.123 Y122.269 E0.19766
G1 X259.996 Y123.957 E0.22368
G1 X258.481 Y125.308 E0.22368
G1 X256.676 Y126.234 E0.22368
G1 X254.695 Y126.677 E0.22368
G1 X225.847 Y126.710 E3.17943
G1 X224.118 Y126.476 E0.19230
G1 X222.481 Y125.873 E0.19230
G1 X220.761 Y124.719 E0.22826
G1 X219.399 Y123.168 E0.22750
G1 X218.478 Y121.320 E0.22750
G1 X218.060 Y119.299 E0.22750
G1 X218.039 Y81.139 E4.20570
G1 X218.246 Y79.567 E0.17476
G1 X219.378 Y79.717 F10800
G1 F1200
G1 X219.389 Y79.634 E0.00924
G1 X219.933 Y78.182 E0.17087
G1 X220.856 Y76.810 E0.18220
G1 X222.080 Y75.699 E0.18220
G1 X223.534 Y74.912 E0.18220
G1 X225.133 Y74.496 E0.18220
G1 X248.695 Y74.311 E2.59688
G1 X254.569 Y74.462 E0.64765
G1 X256.775 Y75.042 E0.25139
G1 X258.118 Y75.844 E0.17228
G1 X259.244 Y76.928 E0.17228
G1 X260.093 Y78.233 E0.17157
G1 X260.627 Y79.702 E0.17228
G1 X260.816 Y81.266 E0.17370
G1 X260.815 Y118.791 E4.13565
G1 X260.615 Y120.347 E0.17299
G1 X260.067 Y121.818 E0.17299
G1 X259.085 Y123.258 E0.19211
G1 X257.771 Y124.404 E0.19211
G1 X256.212 Y125.183 E0.19211
G1 X254.506 Y125.543 E0.19211
G1 X225.895 Y125.564 E3.15336
G1 X224.371 Y125.357 E0.16945
G1 X222.932 Y124.817 E0.16945
G1 X221.473 Y123.817 E0.19495
G1 X220.314 Y122.473 E0.19565
G1 X219.540 Y120.882 E0.19495
G1 X219.198 Y119.140 E0.19565
G1 X219.185 Y81.177 E4.18401
G1 X219.355 Y79.895 E0.14249
G1 X220.486 Y80.046 F10800
G1 F1200
G1 X220.507 Y79.891 E0.01724
G1 X220.983 Y78.647 E0.14683
G1 X221.774 Y77.502 E0.15330
G1 X222.817 Y76.582 E0.15330
G1 X224.051 Y75.941 E0.15330
G1 X225.398 Y75.618 E0.15265
G1 X248.695 Y75.457 E2.56763
G1 X254.391 Y75.597 E0.62798
G1 X256.180 Y76.033 E0.20293
G1 X257.352 Y76.702 E0.14877
G1 X258.339 Y77.632 E0.14942
G1 X259.079 Y78.768 E0.14942
G1 X259.530 Y80.046 E0.14942
G1 X259.669 Y81.277 E0.13648
G1 X259.669 Y118.771 E4.13233
G1 X259.495 Y120.104 E0.14813
G1 X259.017 Y121.353 E0.14748
G1 X258.183 Y122.546 E0.16041
G1 X257.075 Y123.490 E0.16041
G1 X255.765 Y124.124 E0.16041
G1 X254.337 Y124.406 E0.16041
G1 X225.932 Y124.418 E3.13064
G1 X224.629 Y124.240 E0.14489
G1 X223.397 Y123.767 E0.14554
G1 X222.186 Y122.917 E0.16299
G1 X221.237 Y121.790 E0.16234
G1 X220.606 Y120.453 E0.16299
G1 X220.339 Y119.005 E0.16234
G1 X220.331 Y81.211 E4.16531
G1 X220.462 Y80.224 E0.10976
G1 X221.593 Y80.377 F10800
G1 F1200
G1 X221.624 Y80.150 E0.02519
G1 X222.022 Y79.134 E0.12024
G1 X222.667 Y78.222 E0.12314
G1 X223.519 Y77.491 E0.12371
G1 X224.523 Y76.989 E0.12371
G1 X225.619 Y76.747 E0.12371
G1 X248.694 Y76.604 E2.54319
G1 X254.236 Y76.736 E0.61104
G1 X255.599 Y77.034 E0.15370
G1 X256.601 Y77.574 E0.12545
G1 X257.436 Y78.340 E0.12487
G1 X258.059 Y79.292 E0.12545
G1 X258.426 Y80.364 E0.12487
G1 X258.523 Y118.753 E4.23096
G1 X258.379 Y119.840 E0.12082
G1 X257.978 Y120.866 E0.12140
G1 X257.300 Y121.813 E0.12833
G1 X256.406 Y122.558 E0.12833
G1 X255.352 Y123.053 E0.12833
G1 X254.202 Y123.266 E0.12891
G1 X225.971 Y123.272 E3.11143
G1 X224.895 Y123.125 E0.11967
G1 X223.884 Y122.728 E0.11967
G1 X222.926 Y122.040 E0.13007
G1 X222.175 Y121.129 E0.13007
G1 X221.683 Y120.057 E0.13007
G1 X221.481 Y118.894 E0.13007
G1 X221.477 Y81.237 E4.15031
G1 X221.569 Y80.555 E0.07580
; INIT printing object Receptacle_Test_1 id:0 copy 0
;WIPE_START
G1 F8640
G1 X221.624 Y80.150 E-0.26951
G1 X222.022 Y79.134 E-0.71977
G1 X222.196 Y78.889 E-0.19821
;WIPE_END
G1 E-0.06250 F6000
G1 Z1.400000 F10800
; printing object Receptacle_Test_1 id:0 copy 0
G1 X227.796 Y83.046
G1 Z0.250000
G1 E1.25000 F6000
;TYPE:Internal perimeter
G1 F1200
G1 X230.815 Y83.046 E0.33270
G1 X231.314 Y83.046 E0.05501
G1 X232.028 Y83.044 E0.07866
G1 X231.903 Y83.907 E0.09614
G1 X231.861 Y84.514 E0.06705
G1 X231.854 Y85.067 E0.06093
G1 X231.854 Y85.571 E0.05555
G1 X231.854 Y116.954 E3.45876
G1 X227.796 Y116.954 E0.44717
G1 X227.796 Y83.226 E3.71719
;WIPE_START
G1 F8640
G1 X229.593 Y83.119 E-1.18750
;WIPE_END
G1 E-0.06250 F6000
G1 Z0.900000 F10800
G1 X250.572 Y83.046
G1 Z0.250000
G1 E1.25000 F6000
G1 F1200
G1 X252.204 Y83.047 E0.17979
G1 X252.204 Y116.954 E3.73701
G1 X250.746 Y116.954 E0.16061
G1 X250.746 Y85.571 E3.45876
G1 X250.746 Y85.067 E0.05555
G1 X250.739 Y84.514 E0.06093
G1 X250.697 Y83.907 E0.06705
G1 X250.598 Y83.224 E0.07609
G1 X249.464 Y83.388 F10800
;TYPE:External perimeter
G1 F1200
G1 X249.396 Y82.923 E0.05176
G1 X233.204 Y82.923 E1.78466
G1 X233.044 Y84.029 E0.12317
G1 X233.007 Y84.561 E0.05879
G1 X233.000 Y85.075 E0.05660
G1 X233.000 Y85.572 E0.05475
G1 X233.000 Y115.950 E3.34809
G1 X249.600 Y115.950 E1.82954
G1 X249.600 Y85.572 E3.34809
G1 X249.600 Y85.075 E0.05475
G1 X249.593 Y84.561 E0.05660
G1 X249.556 Y84.029 E0.05879
G1 X249.489 Y83.566 E0.05156
G1 X249.833 Y83.097 F10800
;WIPE_START
G1 F8640
G1 X249.396 Y82.923 E-0.42860
G1 X248.246 Y82.923 E-0.75890
;WIPE_END
G1 E-0.06250 F6000
G1 Z0.900000 F10800
G1 X253.350 Y81.900
G1 Z0.250000
G1 E1.25000 F6000
G1 F1200
G1 X253.350 Y118.100 E3.98971
G1 X226.650 Y118.100 E2.94269
G1 X226.650 Y81.900 E3.98971
G1 X230.815 Y81.900 E0.45903
G1 X231.312 Y81.900 E0.05482
G1 X231.815 Y81.898 E0.05537
G1 X232.329 Y81.888 E0.05674
G1 X232.853 Y81.855 E0.05783
G1 X233.346 Y81.800 E0.05461
G1 X233.809 Y81.777 E0.05114
G1 X234.290 Y81.777 E0.05306
G1 X248.680 Y81.777 E1.58589
G1 X249.144 Y81.791 E0.05117
G1 X249.626 Y81.843 E0.05350
G1 X250.147 Y81.883 E0.05751
G1 X250.665 Y81.897 E0.05710
G1 X251.169 Y81.900 E0.05565
G1 X251.667 Y81.900 E0.05488
G1 X253.170 Y81.900 E0.16560
G1 X252.750 Y82.939 F10800
;WIPE_START
G1 F8640
G1 X253.179 Y83.700 E-1.18750
;WIPE_END
G1 E-0.06250 F6000
G1 Z0.900000 F10800
G1 X229.390 Y83.332
G1 Z0.250000
G1 E1.25000 F6000
;TYPE:Solid infill
;WIDTH:1.04673
G1 F1800
G1 X231.053 Y84.995 E0.22604
G1 X231.052 Y85.062 E0.00648
G1 X231.052 Y86.615 E0.14929
G1 X228.599 Y84.162 E0.33348
G1 X228.599 Y85.783 E0.15585
G1 X231.052 Y88.236 E0.33348
G1 X231.052 Y89.857 E0.15585
G1 X228.599 Y87.404 E0.33348
G1 X228.599 Y89.026 E0.15585
G1 X231.052 Y91.478 E0.33348
G1 X231.052 Y93.100 E0.15585
G1 X228.599 Y90.647 E0.33347
G1 X228.599 Y92.268 E0.15585
G1 X231.052 Y94.721 E0.33347
G1 X231.052 Y96.342 E0.15585
G1 X228.599 Y93.889 E0.33347
G1 X228.599 Y95.510 E0.15585
G1 X231.051 Y97.963 E0.33346
G1 X231.051 Y99.584 E0.15585
G1 X228.599 Y97.132 E0.33346
G1 X228.599 Y98.753 E0.15585
G1 X231.051 Y101.205 E0.33346
G1 X231.051 Y102.827 E0.15585
G1 X228.599 Y100.374 E0.33345
G1 X228.599 Y101.995 E0.15585
G1 X231.051 Y104.448 E0.33345
G1 X231.051 Y106.069 E0.15585
G1 X228.599 Y103.616 E0.33345
G1 X228.599 Y105.237 E0.15585
G1 X231.051 Y107.690 E0.33345
G1 X231.051 Y109.311 E0.15585
G1 X228.599 Y106.859 E0.33344
G1 X228.599 Y108.480 E0.15585
G1 X231.051 Y110.932 E0.33344
G1 X231.051 Y112.554 E0.15585
G1 X228.599 Y110.101 E0.33344
G1 X228.599 Y111.722 E0.15585
G1 X231.051 Y114.175 E0.33343
G1 X231.051 Y115.796 E0.15585
G1 X228.599 Y113.343 E0.33343
G1 X228.599 Y114.965 E0.15585
G1 X230.301 Y116.667 E0.23147
;WIPE_START
G1 F8640
G1 X229.028 Y115.394 E-1.18750
;WIPE_END
G1 E-0.06250 F6000
G1 Z0.900000 F10800
G1 X232.384 Y117.025
G1 Z0.250000
G1 E1.25000 F6000
;TYPE:Gap fill
;WIDTH:1.1437
G1 F1200
G1 X249.671 Y117.025 E1.81175
G1 X249.944 Y117.025 E0.02856
G1 X250.216 Y117.025 E0.02856
; INIT stop printing object Receptacle_Test_1 id:0 copy 0
;LAYER_CHANGE
;Z:1
;HEIGHT:0.75
; stop printing object Receptacle_Test_1 id:0 copy 0
G1 Z1.000000 F10800
;Clean the nozzle must use a hardened nozzle!
;T0
;M98 P"brush.g"
M104 S220 ; set temperature
; INIT printing object Receptacle_Test_1 id:0 copy 0
G1 E-1.25000 F6000
G1 Z1.650000 F10800
; printing object Receptacle_Test_1 id:0 copy 0
G1 X232.026 Y117.025
G1 Z1.000000
G1 E1.25000 F6000
;TYPE:Internal perimeter
;WIDTH:1.35
G1 F3600
M204 P800
G1 X232.026 Y117.126 E0.03462
G1 X227.624 Y117.126 E1.50965
G1 X227.624 Y82.874 E11.74685
G1 X232.026 Y82.874 E1.50965
G1 X232.026 Y116.845 E11.65049
;WIPE_START
G1 F8640
M204 P1000
G1 X232.026 Y117.126 E-0.18535
G1 X230.507 Y117.126 E-1.00215
;WIPE_END
G1 E-0.06250 F6000
G1 Z1.650000 F10800
G1 X250.574 Y116.845
G1 Z1.000000
G1 E1.25000 F6000
G1 F3600
M204 P800
G1 X250.574 Y82.874 E11.65049
G1 X252.376 Y82.874 E0.61797
G1 X252.376 Y117.126 E11.74685
G1 X250.574 Y117.126 E0.61797
G1 X250.574 Y117.025 E0.03462
M204 P1000
G1 X249.430 Y115.780 F10800
;TYPE:External perimeter
;WIDTH:1.26
G1 F2400
M204 P800
G1 X249.430 Y82.970 E10.40064
G1 X233.170 Y82.970 E5.15436
G1 X233.170 Y115.780 E10.40064
G1 X249.250 Y115.780 E5.09730
M204 P1000
G1 X250.630 Y115.780 F10800
;WIPE_START
G1 F8640
G1 X249.260 Y113.980 E-1.18750
;WIPE_END
G1 E-0.06250 F6000
G1 Z1.650000 F10800
G1 X253.520 Y118.270
G1 Z1.000000
G1 E1.25000 F6000
G1 F2400
M204 P800
G1 X226.480 Y118.270 E8.57158
G1 X226.480 Y81.730 E11.58304
G1 X253.520 Y81.730 E8.57158
G1 X253.520 Y118.090 E11.52598
M204 P1000
G1 X252.481 Y117.670 F10800
;WIPE_START
G1 F8640
G1 X251.720 Y118.102 E-1.18750
;WIPE_END
G1 E-0.06250 F6000
G1 Z1.650000 F10800
G1 X251.475 Y83.469
G1 Z1.000000
G1 E1.25000 F6000
;TYPE:Gap fill
;WIDTH:0.773809
G1 F2400
G1 X251.475 Y116.531 E5.84436
G1 X250.051 Y117.025 F10800
;WIDTH:1.55911
G1 F2400
G1 X232.549 Y117.025 E7.05766
;WIPE_START
G1 F8640
G1 X234.349 Y117.025 E-1.18750
;WIPE_END
G1 E-0.06250 F6000
G1 Z1.650000 F10800
G1 X229.351 Y83.171
G1 Z1.000000
G1 E1.25000 F6000
;TYPE:Solid infill
;WIDTH:1.17564
G1 F2400
G1 X228.456 Y84.066 E0.37796
G1 X228.456 Y85.748 E0.50222
G1 X230.498 Y83.706 E0.86220
G1 X231.194 Y83.706 E0.20784
G1 X231.194 Y84.692 E0.29438
G1 X228.456 Y87.429 E1.15613
G1 X228.456 Y89.111 E0.50222
G1 X231.194 Y86.374 E1.15613
G1 X231.194 Y88.055 E0.50222
G1 X228.456 Y90.792 E1.15613
G1 X228.456 Y92.474 E0.50222
G1 X231.194 Y89.737 E1.15613
G1 X231.194 Y91.418 E0.50222
G1 X228.456 Y94.156 E1.15613
G1 X228.456 Y95.837 E0.50222
G1 X231.194 Y93.100 E1.15613
G1 X231.194 Y94.781 E0.50222
G1 X228.456 Y97.519 E1.15613
G1 X228.456 Y99.200 E0.50222
G1 X231.194 Y96.463 E1.15613
G1 X231.194 Y98.145 E0.50222
G1 X228.456 Y100.882 E1.15613
G1 X228.456 Y102.563 E0.50222
G1 X231.194 Y99.826 E1.15613
G1 X231.194 Y101.508 E0.50222
G1 X228.456 Y104.245 E1.15613
G1 X228.456 Y105.927 E0.50222
M106 S99.45
G1 X231.194 Y103.189 E1.15613
G1 X231.194 Y104.871 E0.50222
G1 X228.456 Y107.608 E1.15613
G1 X228.456 Y109.290 E0.50222
G1 X231.194 Y106.552 E1.15613
G1 X231.194 Y108.234 E0.50222
G1 X228.456 Y110.971 E1.15613
G1 X228.456 Y112.653 E0.50222
G1 X231.194 Y109.916 E1.15613
G1 X231.194 Y111.597 E0.50222
G1 X228.456 Y114.334 E1.15613
G1 X228.456 Y116.016 E0.50222
G1 X231.194 Y113.279 E1.15613
G1 X231.194 Y114.960 E0.50222
G1 X229.325 Y116.829 E0.78917
; INIT stop printing object Receptacle_Test_1 id:0 copy 0
M106 S99.45
;LAYER_CHANGE
;Z:1.75
;HEIGHT:0.75
; stop printing object Receptacle_Test_1 id:0 copy 0
G1 Z1.750000 F10800
;Clean the nozzle must use a hardened nozzle!
;T0
;M98 P"brush.g"
; INIT printing object Receptacle_Test_1 id:0 copy 0
; printing object Receptacle_Test_1 id:0 copy 0
G1 X227.624 Y117.126
;TYPE:Internal perimeter
;WIDTH:1.35
G1 F2231
M204 P800
G1 X227.624 Y82.874 E11.74685
G1 X232.026 Y82.874 E1.50965
G1 X232.026 Y117.126 E11.74685
G1 X227.804 Y117.126 E1.44792
;WIPE_START
G1 F8640
M204 P1000
G1 X227.795 Y115.326 E-1.18750
;WIPE_END
G1 E-0.06250 F6000
G1 Z2.400000 F10800
G1 X250.574 Y117.126
G1 Z1.750000
G1 E1.25000 F6000
G1 F2231
M204 P800
G1 X250.574 Y82.874 E11.74685
G1 X252.376 Y82.874 E0.61797
G1 X252.376 Y117.126 E11.74685
G1 X250.754 Y117.126 E0.55624
M204 P1000
G1 X249.430 Y115.780 F10800
;TYPE:External perimeter
;WIDTH:1.26
G1 F2231
M204 P800
G1 X249.430 Y82.970 E10.40064
G1 X233.170 Y82.970 E5.15436
G1 X233.170 Y115.780 E10.40064
G1 X249.250 Y115.780 E5.09730
M204 P1000
G1 X250.630 Y115.780 F10800
;WIPE_START
G1 F8640
G1 X249.260 Y113.980 E-1.18750
;WIPE_END
G1 E-0.06250 F6000
G1 Z2.400000 F10800
G1 X253.520 Y118.270
G1 Z1.750000
G1 E1.25000 F6000
G1 F2231
M204 P800
G1 X226.480 Y118.270 E8.57158
G1 X226.480 Y81.730 E11.58304
G1 X253.520 Y81.730 E8.57158
G1 X253.520 Y118.090 E11.52598
M204 P1000
G1 X252.481 Y117.670 F10800
;WIPE_START
G1 F8640
G1 X251.720 Y118.102 E-1.18750
;WIPE_END
G1 E-0.06250 F6000
G1 Z2.400000 F10800
G1 X250.051 Y117.025
G1 Z1.750000
G1 E1.25000 F6000
;TYPE:Gap fill
;WIDTH:1.55911
G1 F2231
G1 X232.549 Y117.025 E7.05766
;WIPE_START
G1 F8640
G1 X234.349 Y117.025 E-1.18750
;WIPE_END
G1 E-0.06250 F6000
G1 Z2.400000 F10800
G1 X230.484 Y116.650
G1 Z1.750000
G1 E1.25000 F6000
;TYPE:Internal infill
;WIDTH:1.35
G1 F2231
G1 X228.100 Y116.650 E0.81770
G1 X228.100 Y111.900 E1.62904
G1 X231.550 Y108.450 E1.67362
G1 X231.550 Y108.366 E0.02868
G1 X228.100 Y104.915 E1.67362
G1 X228.100 Y95.085 E3.37147
G1 X231.550 Y91.634 E1.67362
G1 X231.550 Y91.550 E0.02868
G1 X228.100 Y88.100 E1.67362
G1 X228.100 Y83.350 E1.62903
G1 X230.484 Y83.350 E0.81770
;WIPE_START
G1 F8640
G1 X228.684 Y83.350 E-1.18750
;WIPE_END
G1 E-0.06250 F6000
G1 Z2.400000 F10800
G1 X251.050 Y84.883
G1 Z1.750000
G1 E1.25000 F6000
G1 F2231
G1 X251.050 Y83.350 E0.52595
G1 X251.900 Y83.350 E0.29175
G1 X251.900 Y88.100 E1.62904
G1 X251.050 Y88.950 E0.41259
G1 X251.050 Y94.234 E1.81205
G1 X251.900 Y95.085 E0.41259
G1 X251.900 Y104.915 E3.37147
G1 X251.050 Y105.766 E0.41259
G1 X251.050 Y111.050 E1.81205
G1 X251.900 Y111.900 E0.41259
G1 X251.900 Y116.650 E1.62903
G1 X251.050 Y116.650 E0.29175
G1 X251.050 Y115.117 E0.52596
; INIT stop printing object Receptacle_Test_1 id:0 copy 0
;LAYER_CHANGE
;Z:2.5
;HEIGHT:0.75
; stop printing object Receptacle_Test_1 id:0 copy 0
G1 Z2.500000 F10800
;Clean the nozzle must use a hardened nozzle!
;T0
;M98 P"brush.g"
; INIT printing object Receptacle_Test_1 id:0 copy 0
G1 E-1.25000 F6000
G1 Z3.150000 F10800
; printing object Receptacle_Test_1 id:0 copy 0
G1 X232.026 Y117.126
G1 Z2.500000
G1 E1.25000 F6000
;TYPE:Internal perimeter
G1 F2036
M204 P800
G1 X227.624 Y117.126 E1.50965
G1 X227.624 Y82.874 E11.74685
G1 X232.026 Y82.874 E1.50965
G1 X232.026 Y116.946 E11.68512
;WIPE_START
G1 F8640
M204 P1000
G1 X230.227 Y117.019 E-1.18750
;WIPE_END
G1 E-0.06250 F6000
G1 Z3.150000 F10800
G1 X250.574 Y116.946
G1 Z2.500000
G1 E1.25000 F6000
G1 F2036
M204 P800
G1 X250.574 Y82.874 E11.68512
G1 X252.376 Y82.874 E0.61797
G1 X252.376 Y117.126 E11.74685
G1 X250.574 Y117.126 E0.61797
M204 P1000
G1 X249.430 Y115.780 F10800
;TYPE:External perimeter
;WIDTH:1.26
G1 F2036
M204 P800
G1 X249.430 Y82.970 E10.40064
G1 X233.170 Y82.970 E5.15436
G1 X233.170 Y115.780 E10.40064
G1 X249.250 Y115.780 E5.09730
