; generated by SuperSlicer 2.3.56 on 2023-05-08 at 05:35:12 UTC

; 

; external perimeters extrusion width = 1.26mm
; perimeters extrusion width = 1.35mm
; infill extrusion width = 1.35mm
; solid infill extrusion width = 1.35mm
; top infill extrusion width = 1.26mm
; first layer extrusion width = 1.20mm

; object:{"name":"Keychain","id":"Keychain id:0 copy 0","object_center":[240.000000,105.500000,0.000000],"boundingbox_center":[240.000000,105.500000,8.250000],"boundingbox_size":[28.299999,48.799999,16.500000]}
; plater:{"center":[240.000000,105.500000,0.000000],"boundingbox_center":[240.000000,105.500000,8.250000],"boundingbox_size":[28.299999,48.799999,16.500000]}

;TYPE:Custom
T-1

M104 S225 T0 ; set extruder temp
M140 S65 ; set bed temp

G28
G29 S1

T0

M109 S225; wait for extruder temp
M190 S65 ; wait for bed temp

M98 P"prime.g"

G21 ; set units to millimeters
G90 ; use absolute coordinates
M83 ; use relative distances for extrusion
;LAYER_CHANGE
;Z:0.25
;HEIGHT:0.25
; BEFORE LAYER CHANGE
G1 Z0.250000 F10800
; AFTER LAYER CHANGE
set global.currentZ = 0.25
G1 E-1.25000 F6000
G1 Z1.400000 F10800
G1 X218.892 Y77.699
G1 Z0.250000
G1 E1.25000 F6000
;TYPE:Skirt
;WIDTH:1.2
G1 F1200
G1 X220.253 Y75.769 E0.26032
G1 X222.118 Y74.319 E0.26032
G1 X224.317 Y73.477 E0.25956
G1 X225.786 Y73.292 E0.16316
G1 X233.694 Y73.165 E0.87170
G1 X248.696 Y73.165 E1.65333
G1 X254.745 Y73.327 E0.66692
G1 X257.304 Y74.023 E0.29229
G1 X258.788 Y74.914 E0.19077
G1 X260.047 Y76.102 E0.19077
G1 X261.021 Y77.532 E0.19077
G1 X261.665 Y79.139 E0.19077
G1 X261.962 Y81.266 E0.23667
G1 X261.845 Y120.064 E4.27609
G1 X261.151 Y122.213 E0.24888
G1 X259.880 Y124.088 E0.24965
G1 X248.055 Y135.248 E1.79204
G1 X245.752 Y136.625 E0.29574
G1 X242.892 Y137.597 E0.33287
G1 X240.143 Y137.911 E0.30495
G1 X237.567 Y137.690 E0.28502
G1 X235.740 Y137.223 E0.20786
G1 X234.096 Y136.554 E0.19557
G1 X231.146 Y134.607 E0.38953
G1 X220.241 Y124.218 E1.66006
G1 X219.184 Y122.829 E0.19230
G1 X218.455 Y121.252 E0.19153
G1 X218.038 Y118.759 E0.27860
G1 X218.155 Y79.936 E4.27876
G1 X218.836 Y77.870 E0.23972
G1 X219.919 Y78.235 F10800
G1 F1200
G1 X219.945 Y78.159 E0.00888
G1 X221.145 Y76.496 E0.22603
G1 X222.788 Y75.258 E0.22674
G1 X224.718 Y74.564 E0.22603
G1 X233.724 Y74.311 E0.99287
G1 X248.695 Y74.311 E1.65006
G1 X254.550 Y74.460 E0.64551
G1 X256.716 Y75.016 E0.24647
G1 X258.045 Y75.789 E0.16945
G1 X259.169 Y76.839 E0.16945
G1 X260.031 Y78.112 E0.16945
G1 X260.589 Y79.551 E0.17016
G1 X260.816 Y81.279 E0.19211
G1 X260.712 Y119.892 E4.25558
G1 X260.102 Y121.749 E0.21544
G1 X258.993 Y123.359 E0.21544
G1 X247.381 Y134.320 E1.75993
G1 X245.275 Y135.583 E0.27069
G1 X242.626 Y136.482 E0.30830
G1 X240.108 Y136.765 E0.27922
G1 X237.738 Y136.557 E0.26219
G1 X234.581 Y135.515 E0.36638
G1 X231.889 Y133.734 E0.35578
G1 X221.093 Y123.451 E1.64327
G1 X220.160 Y122.229 E0.16945
G1 X219.525 Y120.836 E0.16874
G1 X219.184 Y118.742 E0.23379
G1 X219.288 Y80.108 E4.25792
G1 X219.862 Y78.406 E0.19802
G1 X220.940 Y78.776 F10800
G1 F1200
G1 X220.986 Y78.641 E0.01566
G1 X222.021 Y77.240 E0.19200
G1 X223.435 Y76.213 E0.19264
G1 X225.088 Y75.662 E0.19200
G1 X233.744 Y75.458 E0.95429
G1 X248.695 Y75.457 E1.64771
G1 X254.379 Y75.597 E0.62668
G1 X256.136 Y76.015 E0.19908
G1 X257.304 Y76.667 E0.14748
G1 X258.289 Y77.574 E0.14748
G1 X259.033 Y78.678 E0.14683
G1 X259.503 Y79.931 E0.14748
G1 X259.670 Y81.289 E0.15071
G1 X259.579 Y119.711 E4.23465
G1 X259.060 Y121.269 E0.18105
G1 X258.115 Y122.620 E0.18170
G1 X246.705 Y133.394 E1.72951
G1 X244.800 Y134.539 E0.24497
G1 X242.360 Y135.367 E0.28399
G1 X240.075 Y135.619 E0.25340
G1 X237.914 Y135.423 E0.23916
G1 X235.068 Y134.477 E0.33054
G1 X232.628 Y132.857 E0.32280
G1 X221.940 Y122.678 E1.62668
G1 X221.138 Y121.629 E0.14554
G1 X220.599 Y120.430 E0.14489
G1 X220.331 Y118.727 E0.19007
G1 X220.421 Y80.289 E4.23634
G1 X220.881 Y78.946 E0.15651
G1 X221.956 Y79.323 F10800
G1 F1200
G1 X222.022 Y79.134 E0.02200
G1 X222.881 Y78.003 E0.15658
G1 X224.046 Y77.189 E0.15658
G1 X225.404 Y76.773 E0.15658
G1 X248.694 Y76.604 E2.56692
G1 X254.226 Y76.735 E0.60988
G1 X255.569 Y77.023 E0.15140
G1 X256.562 Y77.546 E0.12371
G1 X257.398 Y78.296 E0.12371
G1 X258.026 Y79.226 E0.12371
G1 X258.409 Y80.287 E0.12429
G1 X258.448 Y119.525 E4.32458
G1 X258.020 Y120.786 E0.14679
G1 X257.250 Y121.866 E0.14622
G1 X246.036 Y132.463 E1.70041
G1 X244.323 Y133.497 E0.22051
G1 X242.101 Y134.250 E0.25858
G1 X240.049 Y134.473 E0.22747
G1 X238.099 Y134.292 E0.21589
G1 X235.565 Y133.444 E0.29443
G1 X233.376 Y131.988 E0.28982
G1 X222.782 Y121.899 E1.61234
G1 X222.120 Y121.039 E0.11967
G1 X221.679 Y120.046 E0.11967
G1 X221.477 Y118.714 E0.14852
G1 X221.552 Y80.475 E4.21442
G1 X221.896 Y79.493 E0.11474
; INIT printing object Keychain id:0 copy 0
;WIPE_START
G1 F8640
G1 X222.022 Y79.134 E-0.25046
G1 X222.881 Y78.003 E-0.93704
;WIPE_END
G1 E-0.06250 F6000
G1 Z1.400000 F10800
; printing object Keychain id:0 copy 0
G1 X236.446 Y117.096
G1 Z0.250000
G1 E1.25000 F6000
;TYPE:Internal perimeter
G1 F1200
G1 X243.554 Y117.096 E0.78332
G1 X243.554 Y120.151 E0.33666
G1 X242.464 Y119.541 E0.13767
G1 X242.059 Y119.356 E0.04900
G1 X241.641 Y119.205 E0.04899
G1 X241.212 Y119.089 E0.04898
G1 X240.775 Y119.007 E0.04898
G1 X240.333 Y118.962 E0.04898
G1 X239.889 Y118.953 E0.04898
G1 X239.445 Y118.980 E0.04898
G1 X239.005 Y119.044 E0.04898
G1 X238.572 Y119.142 E0.04898
G1 X238.148 Y119.276 E0.04898
G1 X237.737 Y119.444 E0.04899
G1 X237.340 Y119.646 E0.04905
G1 X236.446 Y120.195 E0.11561
G1 X236.446 Y117.276 E0.32171
;WIPE_START
G1 F8640
G1 X238.246 Y117.231 E-1.18750
;WIPE_END
G1 E-0.06250 F6000
G1 Z0.900000 F10800
G1 X231.854 Y116.954
G1 Z0.250000
G1 E1.25000 F6000
G1 F1200
G1 X227.796 Y116.954 E0.44717
G1 X227.796 Y83.046 E3.73703
G1 X230.815 Y83.046 E0.33270
G1 X231.314 Y83.046 E0.05501
G1 X232.028 Y83.044 E0.07866
G1 X231.903 Y83.907 E0.09614
G1 X231.861 Y84.514 E0.06705
G1 X231.854 Y85.067 E0.06093
G1 X231.854 Y85.571 E0.05555
G1 X231.854 Y116.774 E3.43892
;WIPE_START
G1 F8640
G1 X230.055 Y116.853 E-1.18750
;WIPE_END
G1 E-0.06250 F6000
G1 Z0.900000 F10800
G1 X250.746 Y116.774
G1 Z0.250000
G1 E1.25000 F6000
G1 F1200
G1 X250.746 Y85.571 E3.43892
G1 X250.746 Y85.067 E0.05555
G1 X250.739 Y84.514 E0.06093
G1 X250.697 Y83.907 E0.06705
G1 X250.572 Y83.046 E0.09592
G1 X252.204 Y83.047 E0.17979
G1 X252.204 Y116.954 E3.73701
G1 X250.746 Y116.954 E0.16061
;WIPE_START
G1 F8640
G1 X250.746 Y115.154 E-1.18750
;WIPE_END
G1 E-0.06250 F6000
G1 Z0.900000 F10800
G1 X243.322 Y121.721
G1 Z0.250000
G1 E1.25000 F6000
;TYPE:External perimeter
G1 F1200
G1 X243.083 Y121.418 E0.04246
G1 X242.823 Y121.159 E0.04054
G1 X242.544 Y120.933 E0.03954
G1 X242.251 Y120.736 E0.03889
G1 X241.945 Y120.564 E0.03873
G1 X241.626 Y120.418 E0.03867
G1 X241.296 Y120.299 E0.03867
G1 X240.957 Y120.207 E0.03867
G1 X240.612 Y120.143 E0.03867
G1 X240.263 Y120.107 E0.03867
G1 X239.912 Y120.100 E0.03867
G1 X239.562 Y120.122 E0.03867
G1 X239.215 Y120.172 E0.03867
G1 X238.873 Y120.250 E0.03867
G1 X238.538 Y120.355 E0.03867
G1 X238.213 Y120.488 E0.03867
G1 X237.900 Y120.647 E0.03869
G1 X237.601 Y120.831 E0.03879
G1 X237.315 Y121.042 E0.03910
G1 X237.044 Y121.283 E0.03997
G1 X236.794 Y121.562 E0.04128
G1 X236.576 Y121.883 E0.04280
G1 X236.410 Y122.236 E0.04301
G1 X236.312 Y122.551 E0.03634
G1 X236.224 Y122.805 E0.02957
G1 X236.116 Y123.085 E0.03314
G1 X236.022 Y123.406 E0.03687
G1 X235.954 Y123.734 E0.03687
G1 X235.913 Y124.066 E0.03687
G1 X235.899 Y124.400 E0.03687
G1 X235.913 Y124.734 E0.03687
G1 X235.954 Y125.066 E0.03687
G1 X236.022 Y125.394 E0.03687
G1 X236.116 Y125.715 E0.03687
G1 X236.236 Y126.027 E0.03687
G1 X236.381 Y126.328 E0.03687
G1 X236.550 Y126.617 E0.03687
G1 X236.743 Y126.891 E0.03687
G1 X236.956 Y127.148 E0.03687
G1 X237.191 Y127.387 E0.03687
G1 X237.443 Y127.606 E0.03687
G1 X237.713 Y127.804 E0.03687
G1 X237.998 Y127.979 E0.03687
G1 X238.297 Y128.130 E0.03687
G1 X238.606 Y128.256 E0.03687
G1 X238.925 Y128.357 E0.03687
G1 X239.251 Y128.432 E0.03687
G1 X239.582 Y128.479 E0.03687
G1 X239.916 Y128.500 E0.03687
G1 X240.251 Y128.493 E0.03687
G1 X240.584 Y128.459 E0.03687
G1 X240.912 Y128.398 E0.03687
G1 X241.235 Y128.310 E0.03687
G1 X241.550 Y128.196 E0.03687
G1 X241.854 Y128.057 E0.03687
G1 X242.146 Y127.894 E0.03687
G1 X242.424 Y127.708 E0.03687
G1 X242.685 Y127.499 E0.03687
G1 X242.929 Y127.270 E0.03687
G1 X243.153 Y127.021 E0.03687
G1 X243.356 Y126.756 E0.03687
G1 X243.537 Y126.474 E0.03687
G1 X243.694 Y126.179 E0.03687
G1 X243.827 Y125.872 E0.03687
G1 X243.934 Y125.555 E0.03687
G1 X244.015 Y125.231 E0.03687
G1 X244.070 Y124.901 E0.03687
G1 X244.097 Y124.567 E0.03687
G1 X244.097 Y124.233 E0.03687
G1 X244.070 Y123.899 E0.03687
G1 X244.015 Y123.569 E0.03687
G1 X243.934 Y123.245 E0.03687
G1 X243.827 Y122.928 E0.03685
G1 X243.722 Y122.684 E0.02929
G1 X243.648 Y122.407 E0.03160
G1 X243.511 Y122.060 E0.04108
G1 X243.410 Y121.878 E0.02299
G1 X243.484 Y121.371 F10800
;WIPE_START
G1 F8640
G1 X243.083 Y121.418 E-0.37183
G1 X242.823 Y121.159 E-0.24268
G1 X242.544 Y120.933 E-0.23665
G1 X242.251 Y120.736 E-0.23279
G1 X242.114 Y120.659 E-0.10354
;WIPE_END
G1 E-0.06250 F6000
G1 Z0.900000 F10800
G1 X249.600 Y115.950
G1 Z0.250000
G1 E1.25000 F6000
G1 F1200
G1 X249.600 Y85.572 E3.34809
G1 X249.600 Y85.075 E0.05475
G1 X249.593 Y84.561 E0.05660
G1 X249.556 Y84.029 E0.05879
G1 X249.396 Y82.923 E0.12317
G1 X233.204 Y82.923 E1.78466
G1 X233.044 Y84.029 E0.12317
G1 X233.007 Y84.561 E0.05879
G1 X233.000 Y85.075 E0.05660
G1 X233.000 Y85.572 E0.05475
G1 X233.000 Y115.950 E3.34809
G1 X249.420 Y115.950 E1.80970
G1 X250.800 Y115.950 F10800
;WIPE_START
G1 F8640
G1 X249.431 Y114.150 E-1.18750
;WIPE_END
G1 E-0.06250 F6000
G1 Z0.900000 F10800
G1 X244.700 Y118.100
G1 Z0.250000
G1 E1.25000 F6000
G1 F1200
G1 X244.700 Y119.900 E0.19841
G1 X244.700 Y120.403 E0.05545
G1 X244.706 Y120.920 E0.05696
G1 X244.736 Y121.460 E0.05955
G1 X244.813 Y121.996 E0.05975
G1 X244.897 Y122.456 E0.05156
G1 X244.900 Y122.902 E0.04914
G1 X244.900 Y124.390 E0.16399
G1 X244.889 Y124.720 E0.03642
G1 X244.858 Y125.040 E0.03534
G1 X244.806 Y125.356 E0.03534
G1 X244.733 Y125.668 E0.03534
G1 X244.640 Y125.975 E0.03534
G1 X244.527 Y126.275 E0.03534
G1 X244.394 Y126.567 E0.03534
G1 X244.243 Y126.850 E0.03534
G1 X244.074 Y127.122 E0.03534
G1 X243.887 Y127.383 E0.03534
G1 X243.684 Y127.631 E0.03534
G1 X243.465 Y127.865 E0.03534
G1 X243.231 Y128.084 E0.03534
G1 X242.983 Y128.287 E0.03534
G1 X242.722 Y128.474 E0.03534
G1 X242.450 Y128.643 E0.03534
G1 X242.167 Y128.794 E0.03534
G1 X241.875 Y128.927 E0.03534
G1 X241.575 Y129.040 E0.03534
G1 X241.268 Y129.133 E0.03534
G1 X240.956 Y129.206 E0.03534
G1 X240.640 Y129.258 E0.03534
G1 X240.320 Y129.289 E0.03534
G1 X240.000 Y129.300 E0.03534
G1 X239.680 Y129.289 E0.03534
G1 X239.360 Y129.258 E0.03534
G1 X239.044 Y129.206 E0.03534
G1 X238.732 Y129.133 E0.03534
G1 X238.425 Y129.040 E0.03534
G1 X238.125 Y128.927 E0.03534
G1 X237.833 Y128.794 E0.03534
G1 X237.550 Y128.643 E0.03534
G1 X237.278 Y128.474 E0.03534
G1 X237.017 Y128.287 E0.03534
G1 X236.769 Y128.084 E0.03534
G1 X236.535 Y127.865 E0.03534
G1 X236.316 Y127.631 E0.03534
G1 X236.113 Y127.383 E0.03534
G1 X235.926 Y127.122 E0.03534
G1 X235.757 Y126.850 E0.03534
G1 X235.606 Y126.567 E0.03534
G1 X235.473 Y126.275 E0.03534
G1 X235.360 Y125.975 E0.03534
G1 X235.267 Y125.668 E0.03534
G1 X235.194 Y125.356 E0.03534
G1 X235.142 Y125.040 E0.03534
G1 X235.111 Y124.720 E0.03534
G1 X235.100 Y124.390 E0.03642
G1 X235.100 Y122.902 E0.16398
G1 X235.104 Y122.456 E0.04916
G1 X235.187 Y121.996 E0.05157
G1 X235.264 Y121.460 E0.05972
G1 X235.294 Y120.920 E0.05955
G1 X235.300 Y120.403 E0.05697
G1 X235.300 Y119.900 E0.05545
G1 X235.300 Y118.100 E0.19841
G1 X226.650 Y118.100 E0.95334
G1 X226.650 Y81.900 E3.98971
G1 X230.815 Y81.900 E0.45903
G1 X231.312 Y81.900 E0.05482
G1 X231.815 Y81.898 E0.05537
G1 X232.329 Y81.888 E0.05674
G1 X232.853 Y81.855 E0.05783
G1 X233.346 Y81.800 E0.05461
G1 X233.809 Y81.777 E0.05114
G1 X234.290 Y81.777 E0.05306
G1 X248.680 Y81.777 E1.58589
G1 X249.144 Y81.791 E0.05117
G1 X249.626 Y81.843 E0.05350
G1 X250.147 Y81.883 E0.05751
G1 X250.665 Y81.897 E0.05710
G1 X251.169 Y81.900 E0.05565
G1 X251.667 Y81.900 E0.05488
G1 X253.350 Y81.900 E0.18544
G1 X253.350 Y118.100 E3.98971
G1 X244.880 Y118.100 E0.93350
G1 X243.500 Y118.100 F10800
G1 X244.084 Y117.025
;TYPE:Gap fill
;WIDTH:1.1437
G1 F1200
G1 X244.356 Y117.025 E0.02856
G1 X244.629 Y117.025 E0.02856
G1 X249.671 Y117.025 E0.52848
G1 X249.944 Y117.025 E0.02856
G1 X250.216 Y117.025 E0.02856
;WIPE_START
G1 F8640
G1 X249.944 Y117.025 E-0.17978
G1 X249.671 Y117.025 E-0.17978
G1 X248.416 Y117.025 E-0.82793
;WIPE_END
G1 E-0.06250 F6000
G1 Z0.900000 F10800
G1 X243.181 Y119.614
G1 Z0.250000
G1 E1.25000 F6000
;TYPE:Solid infill
;WIDTH:0.96
G1 F1800
G1 X241.466 Y117.899 E0.21386
G1 X239.845 Y117.899 E0.14294
G1 X240.101 Y118.155 E0.03194
G1 X239.872 Y118.150 E0.02012
G1 X239.364 Y118.181 E0.04496
G1 X238.859 Y118.254 E0.04496
G1 X238.631 Y118.306 E0.02063
G1 X238.223 Y117.899 E0.05079
G1 X237.249 Y117.899 E0.08593
G1 X237.249 Y118.545 E0.05701
G1 X237.809 Y119.105 E0.06983
;WIPE_START
G1 F8640
G1 X237.249 Y118.545 E-0.52253
G1 X237.249 Y117.899 E-0.42657
G1 X237.610 Y117.899 E-0.23840
;WIPE_END
G1 E-0.06250 F6000
G1 Z0.900000 F10800
G1 X235.916 Y117.025
G1 Z0.250000
G1 E1.25000 F6000
;TYPE:Gap fill
;WIDTH:1.1437
G1 F1200
G1 X232.384 Y117.025 E0.37023
;WIPE_START
G1 F8640
G1 X234.184 Y117.025 E-1.18750
;WIPE_END
G1 E-0.06250 F6000
G1 Z0.900000 F10800
G1 X229.390 Y83.332
G1 Z0.250000
G1 E1.25000 F6000
;TYPE:Solid infill
;WIDTH:1.04673
G1 F1800
G1 X231.053 Y84.995 E0.22604
G1 X231.052 Y85.062 E0.00648
G1 X231.052 Y86.615 E0.14929
G1 X228.599 Y84.162 E0.33348
G1 X228.599 Y85.783 E0.15585
G1 X231.052 Y88.236 E0.33348
G1 X231.052 Y89.857 E0.15585
G1 X228.599 Y87.404 E0.33348
G1 X228.599 Y89.026 E0.15585
G1 X231.052 Y91.478 E0.33348
G1 X231.052 Y93.100 E0.15585
G1 X228.599 Y90.647 E0.33347
G1 X228.599 Y92.268 E0.15585
G1 X231.052 Y94.721 E0.33347
G1 X231.052 Y96.342 E0.15585
G1 X228.599 Y93.889 E0.33347
G1 X228.599 Y95.510 E0.15585
G1 X231.051 Y97.963 E0.33346
G1 X231.051 Y99.584 E0.15585
G1 X228.599 Y97.132 E0.33346
G1 X228.599 Y98.753 E0.15585
G1 X231.051 Y101.205 E0.33346
G1 X231.051 Y102.827 E0.15585
G1 X228.599 Y100.374 E0.33345
G1 X228.599 Y101.995 E0.15585
G1 X231.051 Y104.448 E0.33345
G1 X231.051 Y106.069 E0.15585
G1 X228.599 Y103.616 E0.33345
G1 X228.599 Y105.237 E0.15585
G1 X231.051 Y107.690 E0.33345
G1 X231.051 Y109.311 E0.15585
G1 X228.599 Y106.859 E0.33344
G1 X228.599 Y108.480 E0.15585
G1 X231.051 Y110.932 E0.33344
G1 X231.051 Y112.554 E0.15585
G1 X228.599 Y110.101 E0.33344
G1 X228.599 Y111.722 E0.15585
G1 X231.051 Y114.175 E0.33343
G1 X231.051 Y115.796 E0.15585
G1 X228.599 Y113.343 E0.33343
G1 X228.599 Y114.965 E0.15585
G1 X230.301 Y116.667 E0.23147
; INIT stop printing object Keychain id:0 copy 0
;LAYER_CHANGE
;Z:1
;HEIGHT:0.75
; BEFORE LAYER CHANGE
; stop printing object Keychain id:0 copy 0
G1 Z1.000000 F10800
; AFTER LAYER CHANGE
set global.currentZ = 1
M104 S220 ; set temperature
; INIT printing object Keychain id:0 copy 0
; printing object Keychain id:0 copy 0
G1 X232.026 Y117.126
;TYPE:Internal perimeter
;WIDTH:1.35
G1 F3600
M204 P800
G1 X227.624 Y117.126 E1.50965
G1 X227.624 Y82.874 E11.74685
G1 X232.026 Y82.874 E1.50965
G1 X232.026 Y116.946 E11.68512
;WIPE_START
G1 F8640
M204 P1000
G1 X230.227 Y117.019 E-1.18750
;WIPE_END
G1 E-0.06250 F6000
G1 Z1.650000 F10800
G1 X236.274 Y116.946
G1 Z1.000000
G1 E1.25000 F6000
G1 F3600
M204 P800
G1 X236.274 Y116.924 E0.00751
G1 X243.726 Y116.924 E2.55567
G1 X243.726 Y120.553 E1.24456
G1 X242.761 Y119.905 E0.39868
G1 X242.385 Y119.695 E0.14760
G1 X241.994 Y119.516 E0.14759
G1 X241.589 Y119.370 E0.14759
G1 X241.174 Y119.257 E0.14760
G1 X240.751 Y119.178 E0.14760
G1 X240.323 Y119.134 E0.14759
G1 X239.892 Y119.126 E0.14759
G1 X239.463 Y119.152 E0.14759
G1 X239.037 Y119.213 E0.14760
G1 X238.617 Y119.309 E0.14760
G1 X238.207 Y119.439 E0.14759
G1 X237.808 Y119.601 E0.14759
G1 X237.425 Y119.796 E0.14759
G1 X236.274 Y120.502 E0.46308
