; generated by SuperSlicer 2.3.56 on 2023-05-08 at 05:38:55 UTC

; 

; external perimeters extrusion width = 1.26mm
; perimeters extrusion width = 1.35mm
; infill extrusion width = 1.35mm
; solid infill extrusion width = 1.35mm
; top infill extrusion width = 1.26mm
; first layer extrusion width = 1.20mm

; object:{"name":"Keychain","id":"Keychain id:0 copy 0","object_center":[240.000000,105.500000,0.000000],"boundingbox_center":[240.000000,105.500000,8.250000],"boundingbox_size":[28.299999,48.799999,16.500000]}
; object:{"name":"Keychain","id":"Keychain id:0 copy 1","object_center":[210.000000,105.500000,0.000000],"boundingbox_center":[210.000000,105.500000,8.250000],"boundingbox_size":[28.299999,48.799999,16.500000]}
; plater:{"center":[225.000000,105.500000,0.000000],"boundingbox_center":[225.000000,105.500000,8.250000],"boundingbox_size":[58.299999,48.799999,16.500000]}

;TYPE:Custom
T-1

M104 S225 T0 ; set extruder temp
M140 S65 ; set bed temp

G28
G29 S1

T0

M109 S225; wait for extruder temp
M190 S65 ; wait for bed temp

M98 P"prime.g"

G21 ; set units to millimeters
G90 ; use absolute coordinates
M83 ; use relative distances for extrusion
;LAYER_CHANGE
;Z:0.25
;HEIGHT:0.25
; BEFORE LAYER CHANGE
G1 Z0.250000 F10800
; AFTER LAYER CHANGE
set global.currentZ = 0.25
G1 E-1.25000 F6000
G1 Z1.400000 F10800
G1 X188.497 Y78.625
G1 Z0.250000
G1 E1.25000 F6000
;TYPE:Skirt
;WIDTH:1.2
G1 F1200
G1 X189.660 Y76.466 E0.27023
G1 X190.853 Y75.202 E0.19153
G1 X192.283 Y74.228 E0.19077
G1 X193.890 Y73.584 E0.19077
G1 X195.605 Y73.300 E0.19153
G1 X248.696 Y73.165 E5.85134
G1 X254.793 Y73.332 E0.67230
G1 X257.443 Y74.089 E0.30369
G1 X258.954 Y75.042 E0.19690
G1 X260.216 Y76.307 E0.19690
G1 X261.164 Y77.813 E0.19613
G1 X261.757 Y79.498 E0.19690
G1 X261.962 Y81.259 E0.19536
G1 X261.958 Y118.959 E4.15503
G1 X261.503 Y121.375 E0.27099
G1 X260.340 Y123.534 E0.27023
G1 X248.344 Y135.027 E1.83101
G1 X245.777 Y136.613 E0.33254
G1 X242.633 Y137.653 E0.36504
G1 X240.052 Y137.912 E0.28580
G1 X209.148 Y137.885 E3.40611
G1 X207.306 Y137.641 E0.20480
G1 X205.436 Y137.117 E0.21401
G1 X203.430 Y136.206 E0.24279
G1 X201.816 Y135.152 E0.21248
G1 X190.150 Y124.121 E1.76953
G1 X188.922 Y122.359 E0.23667
G1 X188.205 Y120.328 E0.23743
G1 X188.038 Y118.731 E0.17697
G1 X188.042 Y81.034 E4.15462
G1 X188.464 Y78.802 E0.25039
G1 X189.557 Y79.186 F10800
G1 F1200
G1 X189.850 Y78.350 E0.09756
G1 X190.614 Y77.106 E0.16094
G1 X191.624 Y76.051 E0.16094
G1 X193.594 Y74.888 E0.25210
G1 X195.843 Y74.437 E0.25280
G1 X248.695 Y74.311 E5.82502
G1 X254.544 Y74.460 E0.64480
G1 X256.699 Y75.008 E0.24506
G1 X258.024 Y75.774 E0.16874
G1 X259.148 Y76.814 E0.16874
G1 X260.013 Y78.077 E0.16874
G1 X260.574 Y79.495 E0.16803
G1 X260.816 Y81.260 E0.19636
G1 X260.815 Y118.771 E4.13423
G1 X260.382 Y121.102 E0.26124
G1 X259.182 Y123.146 E0.26124
G1 X248.054 Y133.783 E1.69667
G1 X246.337 Y135.017 E0.23305
G1 X244.707 Y135.835 E0.20104
G1 X242.632 Y136.481 E0.23945
G1 X240.826 Y136.738 E0.20104
G1 X209.961 Y136.766 E3.40173
G1 X207.668 Y136.544 E0.25388
G1 X204.722 Y135.581 E0.34161
G1 X202.379 Y134.138 E0.30334
G1 X190.799 Y123.123 E1.76137
G1 X189.647 Y121.177 E0.24928
G1 X189.189 Y118.962 E0.24928
G1 X189.185 Y81.177 E4.16439
G1 X189.366 Y79.728 E0.16094
G1 X189.497 Y79.355 E0.04353
G1 X190.570 Y79.738 F10800
G1 F1200
G1 X190.901 Y78.810 E0.10854
G1 X191.554 Y77.765 E0.13583
G1 X192.420 Y76.880 E0.13648
G1 X194.057 Y75.939 E0.20807
G1 X195.905 Y75.582 E0.20743
G1 X248.695 Y75.457 E5.81813
G1 X254.373 Y75.596 E0.62603
G1 X256.125 Y76.010 E0.19843
G1 X257.290 Y76.657 E0.14683
G1 X258.273 Y77.556 E0.14683
G1 X259.022 Y78.657 E0.14683
G1 X259.495 Y79.897 E0.14619
G1 X259.669 Y81.277 E0.15330
G1 X259.668 Y118.842 E4.14015
G1 X259.276 Y120.784 E0.21834
G1 X258.246 Y122.476 E0.21834
G1 X247.255 Y132.956 E1.67381
G1 X245.720 Y134.051 E0.20778
G1 X244.248 Y134.784 E0.18123
G1 X242.355 Y135.368 E0.21840
G1 X240.714 Y135.597 E0.18253
G1 X209.965 Y135.619 E3.38901
G1 X207.856 Y135.413 E0.23354
G1 X205.185 Y134.533 E0.30987
G1 X203.062 Y133.216 E0.27541
G1 X191.630 Y122.330 E1.73982
G1 X190.695 Y120.710 E0.20615
G1 X190.333 Y118.880 E0.20550
G1 X190.331 Y81.200 E4.15291
G1 X190.487 Y79.971 E0.13648
G1 X190.510 Y79.907 E0.00745
G1 X191.724 Y80.200 F10800
G1 F1200
G1 X191.945 Y79.285 E0.10373
G1 X193.195 Y77.728 E0.22006
G1 X194.493 Y77.000 E0.16405
G1 X195.957 Y76.728 E0.16405
G1 X248.694 Y76.604 E5.81235
G1 X254.226 Y76.735 E0.60988
G1 X255.564 Y77.021 E0.15082
G1 X256.558 Y77.543 E0.12371
G1 X257.391 Y78.288 E0.12313
G1 X258.021 Y79.217 E0.12371
G1 X258.405 Y80.266 E0.12313
G1 X258.519 Y118.906 E4.25865
G1 X258.175 Y120.450 E0.17438
G1 X257.322 Y121.789 E0.17496
G1 X246.204 Y132.335 E1.68888
G1 X243.724 Y133.758 E0.31517
G1 X242.065 Y134.259 E0.19095
G1 X240.592 Y134.455 E0.16380
G1 X209.974 Y134.473 E3.37454
G1 X208.026 Y134.278 E0.21571
G1 X205.646 Y133.483 E0.27652
G1 X203.757 Y132.304 E0.24541
G1 X192.478 Y121.555 E1.71726
G1 X191.753 Y120.266 E0.16290
G1 X191.478 Y118.814 E0.16290
G1 X191.477 Y81.226 E4.14271
G1 X191.682 Y80.375 E0.09650
; INIT printing object Keychain id:0 copy 0
;WIPE_START
G1 F8640
G1 X191.945 Y79.285 E-0.73965
G1 X192.370 Y78.755 E-0.44785
;WIPE_END
G1 E-0.06250 F6000
G1 Z1.400000 F10800
; printing object Keychain id:0 copy 0
G1 X236.446 Y117.096
G1 Z0.250000
G1 E1.25000 F6000
;TYPE:Internal perimeter
G1 F1200
G1 X243.554 Y117.096 E0.78332
G1 X243.554 Y120.151 E0.33666
G1 X242.464 Y119.541 E0.13767
G1 X242.059 Y119.356 E0.04900
G1 X241.641 Y119.205 E0.04899
G1 X241.212 Y119.089 E0.04898
G1 X240.775 Y119.007 E0.04898
G1 X240.333 Y118.962 E0.04898
G1 X239.889 Y118.953 E0.04898
G1 X239.445 Y118.980 E0.04898
G1 X239.005 Y119.044 E0.04898
G1 X238.572 Y119.142 E0.04898
G1 X238.148 Y119.276 E0.04898
G1 X237.737 Y119.444 E0.04899
G1 X237.340 Y119.646 E0.04905
G1 X236.446 Y120.195 E0.11561
G1 X236.446 Y117.276 E0.32171
;WIPE_START
G1 F8640
G1 X238.246 Y117.231 E-1.18750
;WIPE_END
G1 E-0.06250 F6000
G1 Z0.900000 F10800
G1 X231.854 Y116.954
G1 Z0.250000
G1 E1.25000 F6000
G1 F1200
G1 X227.796 Y116.954 E0.44717
G1 X227.796 Y83.046 E3.73703
G1 X230.815 Y83.046 E0.33270
G1 X231.314 Y83.046 E0.05501
G1 X232.028 Y83.044 E0.07866
G1 X231.903 Y83.907 E0.09614
G1 X231.861 Y84.514 E0.06705
G1 X231.854 Y85.067 E0.06093
G1 X231.854 Y85.571 E0.05555
G1 X231.854 Y116.774 E3.43892
;WIPE_START
G1 F8640
G1 X230.055 Y116.853 E-1.18750
;WIPE_END
G1 E-0.06250 F6000
G1 Z0.900000 F10800
G1 X250.746 Y116.774
G1 Z0.250000
G1 E1.25000 F6000
G1 F1200
G1 X250.746 Y85.571 E3.43892
G1 X250.746 Y85.067 E0.05555
G1 X250.739 Y84.514 E0.06093
G1 X250.697 Y83.907 E0.06705
G1 X250.572 Y83.046 E0.09592
G1 X252.204 Y83.047 E0.17979
G1 X252.204 Y116.954 E3.73701
G1 X250.746 Y116.954 E0.16061
;WIPE_START
G1 F8640
G1 X250.746 Y115.154 E-1.18750
;WIPE_END
G1 E-0.06250 F6000
G1 Z0.900000 F10800
G1 X243.322 Y121.721
G1 Z0.250000
G1 E1.25000 F6000
;TYPE:External perimeter
G1 F1200
G1 X243.083 Y121.418 E0.04246
G1 X242.823 Y121.159 E0.04054
G1 X242.544 Y120.933 E0.03954
G1 X242.251 Y120.736 E0.03889
G1 X241.945 Y120.564 E0.03873
G1 X241.626 Y120.418 E0.03867
G1 X241.296 Y120.299 E0.03867
G1 X240.957 Y120.207 E0.03867
G1 X240.612 Y120.143 E0.03867
G1 X240.263 Y120.107 E0.03867
G1 X239.912 Y120.100 E0.03867
G1 X239.562 Y120.122 E0.03867
G1 X239.215 Y120.172 E0.03867
G1 X238.873 Y120.250 E0.03867
G1 X238.538 Y120.355 E0.03867
G1 X238.213 Y120.488 E0.03867
G1 X237.900 Y120.647 E0.03869
G1 X237.601 Y120.831 E0.03879
G1 X237.315 Y121.042 E0.03910
G1 X237.044 Y121.283 E0.03997
G1 X236.794 Y121.562 E0.04128
G1 X236.576 Y121.883 E0.04280
G1 X236.410 Y122.236 E0.04301
G1 X236.312 Y122.551 E0.03634
G1 X236.224 Y122.805 E0.02957
G1 X236.116 Y123.085 E0.03314
G1 X236.022 Y123.406 E0.03687
G1 X235.954 Y123.734 E0.03687
G1 X235.913 Y124.066 E0.03687
G1 X235.899 Y124.400 E0.03687
G1 X235.913 Y124.734 E0.03687
G1 X235.954 Y125.066 E0.03687
G1 X236.022 Y125.394 E0.03687
G1 X236.116 Y125.715 E0.03687
G1 X236.236 Y126.027 E0.03687
G1 X236.381 Y126.328 E0.03687
G1 X236.550 Y126.617 E0.03687
G1 X236.743 Y126.891 E0.03687
G1 X236.956 Y127.148 E0.03687
G1 X237.191 Y127.387 E0.03687
G1 X237.443 Y127.606 E0.03687
G1 X237.713 Y127.804 E0.03687
G1 X237.998 Y127.979 E0.03687
G1 X238.297 Y128.130 E0.03687
G1 X238.606 Y128.256 E0.03687
G1 X238.925 Y128.357 E0.03687
G1 X239.251 Y128.432 E0.03687
G1 X239.582 Y128.479 E0.03687
G1 X239.916 Y128.500 E0.03687
G1 X240.251 Y128.493 E0.03687
G1 X240.584 Y128.459 E0.03687
G1 X240.912 Y128.398 E0.03687
G1 X241.235 Y128.310 E0.03687
G1 X241.550 Y128.196 E0.03687
G1 X241.854 Y128.057 E0.03687
G1 X242.146 Y127.894 E0.03687
G1 X242.424 Y127.708 E0.03687
G1 X242.685 Y127.499 E0.03687
G1 X242.929 Y127.270 E0.03687
G1 X243.153 Y127.021 E0.03687
G1 X243.356 Y126.756 E0.03687
G1 X243.537 Y126.474 E0.03687
G1 X243.694 Y126.179 E0.03687
G1 X243.827 Y125.872 E0.03687
G1 X243.934 Y125.555 E0.03687
G1 X244.015 Y125.231 E0.03687
G1 X244.070 Y124.901 E0.03687
G1 X244.097 Y124.567 E0.03687
G1 X244.097 Y124.233 E0.03687
G1 X244.070 Y123.899 E0.03687
G1 X244.015 Y123.569 E0.03687
G1 X243.934 Y123.245 E0.03687
G1 X243.827 Y122.928 E0.03685
G1 X243.722 Y122.684 E0.02929
G1 X243.648 Y122.407 E0.03160
G1 X243.511 Y122.060 E0.04108
G1 X243.410 Y121.878 E0.02299
G1 X243.484 Y121.371 F10800
;WIPE_START
G1 F8640
G1 X243.083 Y121.418 E-0.37183
G1 X242.823 Y121.159 E-0.24268
G1 X242.544 Y120.933 E-0.23665
G1 X242.251 Y120.736 E-0.23279
G1 X242.114 Y120.659 E-0.10354
;WIPE_END
G1 E-0.06250 F6000
G1 Z0.900000 F10800
G1 X249.600 Y115.950
G1 Z0.250000
G1 E1.25000 F6000
G1 F1200
G1 X249.600 Y85.572 E3.34809
G1 X249.600 Y85.075 E0.05475
G1 X249.593 Y84.561 E0.05660
G1 X249.556 Y84.029 E0.05879
G1 X249.396 Y82.923 E0.12317
G1 X233.204 Y82.923 E1.78466
G1 X233.044 Y84.029 E0.12317
G1 X233.007 Y84.561 E0.05879
G1 X233.000 Y85.075 E0.05660
G1 X233.000 Y85.572 E0.05475
G1 X233.000 Y115.950 E3.34809
G1 X249.420 Y115.950 E1.80970
G1 X250.800 Y115.950 F10800
;WIPE_START
G1 F8640
G1 X249.431 Y114.150 E-1.18750
;WIPE_END
G1 E-0.06250 F6000
G1 Z0.900000 F10800
G1 X244.700 Y118.100
G1 Z0.250000
G1 E1.25000 F6000
G1 F1200
G1 X244.700 Y119.900 E0.19841
G1 X244.700 Y120.403 E0.05545
G1 X244.706 Y120.920 E0.05696
G1 X244.736 Y121.460 E0.05955
G1 X244.813 Y121.996 E0.05975
G1 X244.897 Y122.456 E0.05156
G1 X244.900 Y122.902 E0.04914
G1 X244.900 Y124.390 E0.16399
G1 X244.889 Y124.720 E0.03642
G1 X244.858 Y125.040 E0.03534
G1 X244.806 Y125.356 E0.03534
G1 X244.733 Y125.668 E0.03534
G1 X244.640 Y125.975 E0.03534
G1 X244.527 Y126.275 E0.03534
G1 X244.394 Y126.567 E0.03534
G1 X244.243 Y126.850 E0.03534
G1 X244.074 Y127.122 E0.03534
G1 X243.887 Y127.383 E0.03534
G1 X243.684 Y127.631 E0.03534
G1 X243.465 Y127.865 E0.03534
G1 X243.231 Y128.084 E0.03534
G1 X242.983 Y128.287 E0.03534
G1 X242.722 Y128.474 E0.03534
G1 X242.450 Y128.643 E0.03534
G1 X242.167 Y128.794 E0.03534
G1 X241.875 Y128.927 E0.03534
G1 X241.575 Y129.040 E0.03534
G1 X241.268 Y129.133 E0.03534
G1 X240.956 Y129.206 E0.03534
G1 X240.640 Y129.258 E0.03534
G1 X240.320 Y129.289 E0.03534
G1 X240.000 Y129.300 E0.03534
G1 X239.680 Y129.289 E0.03534
G1 X239.360 Y129.258 E0.03534
G1 X239.044 Y129.206 E0.03534
G1 X238.732 Y129.133 E0.03534
G1 X238.425 Y129.040 E0.03534
G1 X238.125 Y128.927 E0.03534
G1 X237.833 Y128.794 E0.03534
G1 X237.550 Y128.643 E0.03534
G1 X237.278 Y128.474 E0.03534
G1 X237.017 Y128.287 E0.03534
G1 X236.769 Y128.084 E0.03534
G1 X236.535 Y127.865 E0.03534
G1 X236.316 Y127.631 E0.03534
G1 X236.113 Y127.383 E0.03534
G1 X235.926 Y127.122 E0.03534
G1 X235.757 Y126.850 E0.03534
G1 X235.606 Y126.567 E0.03534
G1 X235.473 Y126.275 E0.03534
G1 X235.360 Y125.975 E0.03534
G1 X235.267 Y125.668 E0.03534
G1 X235.194 Y125.356 E0.03534
G1 X235.142 Y125.040 E0.03534
G1 X235.111 Y124.720 E0.03534
G1 X235.100 Y124.390 E0.03642
G1 X235.100 Y122.902 E0.16398
G1 X235.104 Y122.456 E0.04916
G1 X235.187 Y121.996 E0.05157
G1 X235.264 Y121.460 E0.05972
G1 X235.294 Y120.920 E0.05955
G1 X235.300 Y120.403 E0.05697
G1 X235.300 Y119.900 E0.05545
G1 X235.300 Y118.100 E0.19841
G1 X226.650 Y118.100 E0.95334
G1 X226.650 Y81.900 E3.98971
G1 X230.815 Y81.900 E0.45903
G1 X231.312 Y81.900 E0.05482
G1 X231.815 Y81.898 E0.05537
G1 X232.329 Y81.888 E0.05674
G1 X232.853 Y81.855 E0.05783
G1 X233.346 Y81.800 E0.05461
G1 X233.809 Y81.777 E0.05114
G1 X234.290 Y81.777 E0.05306
G1 X248.680 Y81.777 E1.58589
G1 X249.144 Y81.791 E0.05117
G1 X249.626 Y81.843 E0.05350
G1 X250.147 Y81.883 E0.05751
G1 X250.665 Y81.897 E0.05710
G1 X251.169 Y81.900 E0.05565
G1 X251.667 Y81.900 E0.05488
G1 X253.350 Y81.900 E0.18544
G1 X253.350 Y118.100 E3.98971
G1 X244.880 Y118.100 E0.93350
G1 X243.500 Y118.100 F10800
G1 X244.084 Y117.025
;TYPE:Gap fill
;WIDTH:1.1437
G1 F1200
G1 X244.356 Y117.025 E0.02856
G1 X244.629 Y117.025 E0.02856
G1 X249.671 Y117.025 E0.52848
G1 X249.944 Y117.025 E0.02856
G1 X250.216 Y117.025 E0.02856
;WIPE_START
G1 F8640
G1 X249.944 Y117.025 E-0.17978
G1 X249.671 Y117.025 E-0.17978
G1 X248.416 Y117.025 E-0.82793
;WIPE_END
G1 E-0.06250 F6000
G1 Z0.900000 F10800
G1 X243.181 Y119.614
G1 Z0.250000
G1 E1.25000 F6000
;TYPE:Solid infill
;WIDTH:0.96
G1 F1800
G1 X241.466 Y117.899 E0.21386
G1 X239.845 Y117.899 E0.14294
G1 X240.101 Y118.155 E0.03194
G1 X239.872 Y118.150 E0.02012
G1 X239.364 Y118.181 E0.04496
G1 X238.859 Y118.254 E0.04496
G1 X238.631 Y118.306 E0.02063
G1 X238.223 Y117.899 E0.05079
G1 X237.249 Y117.899 E0.08593
G1 X237.249 Y118.545 E0.05701
G1 X237.809 Y119.105 E0.06983
;WIPE_START
G1 F8640
G1 X237.249 Y118.545 E-0.52253
G1 X237.249 Y117.899 E-0.42657
G1 X237.610 Y117.899 E-0.23840
;WIPE_END
G1 E-0.06250 F6000
G1 Z0.900000 F10800
G1 X235.916 Y117.025
G1 Z0.250000
G1 E1.25000 F6000
;TYPE:Gap fill
;WIDTH:1.1437
G1 F1200
G1 X232.384 Y117.025 E0.37023
;WIPE_START
G1 F8640
G1 X234.184 Y117.025 E-1.18750
;WIPE_END
G1 E-0.06250 F6000
G1 Z0.900000 F10800
G1 X229.390 Y83.332
G1 Z0.250000
G1 E1.25000 F6000
;TYPE:Solid infill
;WIDTH:1.04673
G1 F1800
G1 X231.053 Y84.995 E0.22604
G1 X231.052 Y85.062 E0.00648
G1 X231.052 Y86.615 E0.14929
G1 X228.599 Y84.162 E0.33348
G1 X228.599 Y85.783 E0.15585
G1 X231.052 Y88.236 E0.33348
G1 X231.052 Y89.857 E0.15585
G1 X228.599 Y87.404 E0.33348
G1 X228.599 Y89.026 E0.15585
G1 X231.052 Y91.478 E0.33348
G1 X231.052 Y93.100 E0.15585
G1 X228.599 Y90.647 E0.33347
G1 X228.599 Y92.268 E0.15585
G1 X231.052 Y94.721 E0.33347
G1 X231.052 Y96.342 E0.15585
G1 X228.599 Y93.889 E0.33347
G1 X228.599 Y95.510 E0.15585
G1 X231.051 Y97.963 E0.33346
G1 X231.051 Y99.584 E0.15585
G1 X228.599 Y97.132 E0.33346
G1 X228.599 Y98.753 E0.15585
G1 X231.051 Y101.205 E0.33346
G1 X231.051 Y102.827 E0.15585
G1 X228.599 Y100.374 E0.33345
G1 X228.599 Y101.995 E0.15585
G1 X231.051 Y104.448 E0.33345
G1 X231.051 Y106.069 E0.15585
G1 X228.599 Y103.616 E0.33345
G1 X228.599 Y105.237 E0.15585
G1 X231.051 Y107.690 E0.33345
G1 X231.051 Y109.311 E0.15585
G1 X228.599 Y106.859 E0.33344
G1 X228.599 Y108.480 E0.15585
G1 X231.051 Y110.932 E0.33344
G1 X231.051 Y112.554 E0.15585
G1 X228.599 Y110.101 E0.33344
G1 X228.599 Y111.722 E0.15585
G1 X231.051 Y114.175 E0.33343
G1 X231.051 Y115.796 E0.15585
G1 X228.599 Y113.343 E0.33343
G1 X228.599 Y114.965 E0.15585
G1 X230.301 Y116.667 E0.23147
; INIT stop printing object Keychain id:0 copy 0
; INIT printing object Keychain id:0 copy 1
;WIPE_START
G1 F8640
G1 X229.028 Y115.394 E-1.18750
;WIPE_END
G1 E-0.06250 F6000
G1 Z1.400000 F10800
; stop printing object Keychain id:0 copy 0
; printing object Keychain id:0 copy 1
G1 X213.554 Y117.096
G1 Z0.250000
G1 E1.25000 F6000
;TYPE:Internal perimeter
;WIDTH:1.2
G1 F1200
G1 X213.554 Y120.151 E0.33666
G1 X212.464 Y119.541 E0.13767
G1 X212.059 Y119.356 E0.04900
G1 X211.641 Y119.205 E0.04899
G1 X211.212 Y119.089 E0.04898
G1 X210.775 Y119.007 E0.04898
G1 X210.333 Y118.962 E0.04898
G1 X209.889 Y118.953 E0.04898
G1 X209.445 Y118.980 E0.04898
G1 X209.005 Y119.044 E0.04898
G1 X208.572 Y119.142 E0.04898
G1 X208.148 Y119.276 E0.04898
G1 X207.737 Y119.444 E0.04899
G1 X207.340 Y119.646 E0.04905
G1 X206.446 Y120.195 E0.11561
G1 X206.446 Y117.096 E0.34155
G1 X213.374 Y117.096 E0.76348
