; generated by SuperSlicer 2.3.56 on 2023-05-08 at 04:38:42 UTC

; 

; external perimeters extrusion width = 1.26mm
; perimeters extrusion width = 1.35mm
; infill extrusion width = 1.35mm
; solid infill extrusion width = 1.35mm
; top infill extrusion width = 1.26mm
; first layer extrusion width = 1.20mm

; object:{"name":"Keychain","id":"Keychain id:0 copy 0","object_center":[240.000000,105.498588,0.000000],"boundingbox_center":[240.000000,105.498588,7.625000],"boundingbox_size":[28.299999,48.797173,15.250000]}
; plater:{"center":[240.000000,105.498588,0.000000],"boundingbox_center":[240.000000,105.498588,7.625000],"boundingbox_size":[28.299999,48.797173,15.250000]}

;TYPE:Custom
T-1

M104 S225 T0 ; set extruder temp
M140 S65 ; set bed temp

G28
G29 S1

T0

M109 S225; wait for extruder temp
M190 S65 ; wait for bed temp

M98 P"prime.g"

G21 ; set units to millimeters
G90 ; use absolute coordinates
M83 ; use relative distances for extrusion
;LAYER_CHANGE
;Z:0.25
;HEIGHT:0.25
; BEFORE LAYER CHANGE
G1 Z0.250000 F10800
; AFTER LAYER CHANGE
G1 Z0.25
G1 E-1.25000 F6000
G1 Z1.400000 F10800
G1 X218.883 Y77.718
G1 Z0.250000
G1 E1.25000 F6000
;TYPE:Skirt
;WIDTH:1.2
G1 F1200
G1 X220.239 Y75.784 E0.26032
G1 X222.100 Y74.329 E0.26032
G1 X224.311 Y73.479 E0.26109
G1 X225.786 Y73.292 E0.16393
G1 X233.687 Y73.165 E0.87093
G1 X248.696 Y73.165 E1.65410
G1 X254.745 Y73.327 E0.66692
G1 X257.297 Y74.021 E0.29153
G1 X258.783 Y74.909 E0.19077
G1 X260.042 Y76.096 E0.19077
G1 X261.018 Y77.526 E0.19077
G1 X261.663 Y79.132 E0.19077
G1 X261.962 Y81.266 E0.23743
G1 X261.850 Y120.036 E4.27305
G1 X261.154 Y122.207 E0.25117
G1 X259.875 Y124.093 E0.25117
G1 X247.894 Y135.365 E1.81307
G1 X245.538 Y136.725 E0.29980
G1 X243.046 Y137.564 E0.28983
G1 X240.431 Y137.905 E0.29060
G1 X237.786 Y137.730 E0.29213
G1 X236.080 Y137.331 E0.19315
G1 X234.351 Y136.674 E0.20388
G1 X232.792 Y135.828 E0.19544
G1 X231.109 Y134.572 E0.23145
G1 X220.245 Y124.223 E1.65365
G1 X219.195 Y122.847 E0.19077
G1 X218.464 Y121.278 E0.19077
G1 X218.038 Y118.759 E0.28165
G1 X218.150 Y79.964 E4.27572
G1 X218.827 Y77.889 E0.24049
G1 X219.911 Y78.250 F10800
G1 F1200
G1 X219.936 Y78.176 E0.00864
G1 X221.136 Y76.505 E0.22674
G1 X222.777 Y75.264 E0.22674
G1 X224.718 Y74.564 E0.22744
G1 X233.724 Y74.311 E0.99287
G1 X248.695 Y74.311 E1.65006
G1 X254.550 Y74.460 E0.64551
G1 X256.716 Y75.016 E0.24647
G1 X258.045 Y75.789 E0.16945
G1 X259.169 Y76.839 E0.16945
G1 X260.031 Y78.112 E0.16945
G1 X260.589 Y79.551 E0.17016
G1 X260.816 Y81.279 E0.19211
G1 X260.716 Y119.866 E4.25276
G1 X260.105 Y121.743 E0.21756
G1 X258.985 Y123.368 E0.21756
G1 X247.212 Y134.444 E1.78148
G1 X245.053 Y135.686 E0.27451
G1 X242.777 Y136.450 E0.26457
G1 X240.383 Y136.760 E0.26600
G1 X237.956 Y136.596 E0.26812
G1 X234.830 Y135.632 E0.36057
G1 X233.409 Y134.861 E0.17819
G1 X231.842 Y133.691 E0.21551
G1 X221.093 Y123.451 E1.63623
G1 X220.167 Y122.240 E0.16803
G1 X219.531 Y120.854 E0.16803
G1 X219.184 Y118.742 E0.23590
G1 X219.284 Y80.134 E4.25511
G1 X219.854 Y78.421 E0.19897
G1 X220.934 Y78.789 F10800
G1 F1200
G1 X220.980 Y78.652 E0.01592
G1 X222.017 Y77.244 E0.19264
G1 X223.425 Y76.218 E0.19200
G1 X225.082 Y75.663 E0.19264
G1 X233.744 Y75.458 E0.95493
G1 X248.695 Y75.457 E1.64771
G1 X254.379 Y75.597 E0.62668
G1 X256.136 Y76.015 E0.19908
G1 X257.304 Y76.667 E0.14748
G1 X258.289 Y77.574 E0.14748
G1 X259.033 Y78.678 E0.14683
G1 X259.503 Y79.931 E0.14748
G1 X259.670 Y81.289 E0.15071
G1 X259.583 Y119.693 E4.23272
G1 X259.060 Y121.269 E0.18298
G1 X258.111 Y122.624 E0.18234
G1 X246.534 Y133.519 E1.75204
G1 X244.579 Y134.642 E0.24848
G1 X242.514 Y135.334 E0.24006
G1 X240.342 Y135.614 E0.24136
G1 X238.128 Y135.462 E0.24459
G1 X235.308 Y134.590 E0.32527
G1 X232.581 Y132.815 E0.35863
G1 X221.940 Y122.678 E1.61977
G1 X221.144 Y121.640 E0.14425
G1 X220.604 Y120.447 E0.14425
G1 X220.331 Y118.727 E0.19200
G1 X220.417 Y80.307 E4.23442
G1 X220.876 Y78.959 E0.15689
G1 X221.951 Y79.333 F10800
G1 F1200
G1 X222.017 Y79.144 E0.02204
G1 X222.873 Y78.010 E0.15658
G1 X224.041 Y77.192 E0.15715
G1 X225.404 Y76.773 E0.15715
G1 X248.694 Y76.604 E2.56692
G1 X254.226 Y76.735 E0.60988
G1 X255.569 Y77.023 E0.15140
G1 X256.562 Y77.546 E0.12371
G1 X257.398 Y78.296 E0.12371
G1 X258.026 Y79.226 E0.12371
G1 X258.409 Y80.287 E0.12429
G1 X258.451 Y119.509 E4.32286
G1 X258.025 Y120.777 E0.14737
G1 X257.246 Y121.870 E0.14794
G1 X245.856 Y132.595 E1.72419
G1 X244.105 Y133.599 E0.22247
G1 X242.251 Y134.219 E0.21552
G1 X240.306 Y134.469 E0.21611
G1 X238.313 Y134.331 E0.22015
G1 X235.801 Y133.555 E0.28969
G1 X233.326 Y131.943 E0.32557
G1 X222.782 Y121.899 E1.60496
G1 X222.125 Y121.048 E0.11851
G1 X221.684 Y120.061 E0.11909
G1 X221.477 Y118.714 E0.15025
G1 X221.549 Y80.491 E4.21270
G1 X221.892 Y79.503 E0.11528
; INIT printing object Keychain id:0 copy 0
;WIPE_START
G1 F8640
G1 X222.017 Y79.144 E-0.25068
G1 X222.873 Y78.011 E-0.93682
;WIPE_END
G1 E-0.06250 F6000
G1 Z1.400000 F10800
; printing object Keychain id:0 copy 0
G1 X236.446 Y117.096
G1 Z0.250000
G1 E1.25000 F6000
;TYPE:Internal perimeter
G1 F1200
G1 X243.554 Y117.096 E0.78332
G1 X243.554 Y120.151 E0.33666
G1 X242.464 Y119.541 E0.13767
G1 X242.059 Y119.356 E0.04900
G1 X241.641 Y119.205 E0.04899
G1 X241.212 Y119.089 E0.04898
G1 X240.775 Y119.007 E0.04898
G1 X240.333 Y118.962 E0.04898
G1 X239.889 Y118.953 E0.04898
G1 X239.445 Y118.980 E0.04898
G1 X239.005 Y119.044 E0.04898
G1 X238.572 Y119.142 E0.04898
G1 X238.148 Y119.276 E0.04898
G1 X237.737 Y119.444 E0.04899
G1 X237.340 Y119.646 E0.04905
G1 X236.446 Y120.195 E0.11561
G1 X236.446 Y117.276 E0.32171
;WIPE_START
G1 F8640
G1 X238.246 Y117.231 E-1.18750
;WIPE_END
G1 E-0.06250 F6000
G1 Z0.900000 F10800
G1 X231.854 Y116.954
G1 Z0.250000
G1 E1.25000 F6000
G1 F1200
G1 X227.796 Y116.954 E0.44717
G1 X227.796 Y83.046 E3.73703
G1 X230.815 Y83.046 E0.33270
G1 X231.314 Y83.046 E0.05501
G1 X232.028 Y83.044 E0.07866
G1 X231.903 Y83.907 E0.09614
G1 X231.861 Y84.514 E0.06705
G1 X231.854 Y85.067 E0.06093
G1 X231.854 Y85.571 E0.05555
G1 X231.854 Y116.774 E3.43892
;WIPE_START
G1 F8640
G1 X230.055 Y116.853 E-1.18750
;WIPE_END
G1 E-0.06250 F6000
G1 Z0.900000 F10800
G1 X250.746 Y116.774
G1 Z0.250000
G1 E1.25000 F6000
G1 F1200
G1 X250.746 Y85.571 E3.43892
G1 X250.746 Y85.067 E0.05555
G1 X250.739 Y84.514 E0.06093
G1 X250.697 Y83.907 E0.06705
G1 X250.572 Y83.046 E0.09592
G1 X252.204 Y83.047 E0.17979
G1 X252.204 Y116.954 E3.73701
G1 X250.746 Y116.954 E0.16061
;WIPE_START
G1 F8640
G1 X250.746 Y115.154 E-1.18750
;WIPE_END
G1 E-0.06250 F6000
G1 Z0.900000 F10800
G1 X243.322 Y121.721
G1 Z0.250000
G1 E1.25000 F6000
;TYPE:External perimeter
G1 F1200
G1 X243.083 Y121.418 E0.04246
G1 X242.823 Y121.159 E0.04054
G1 X242.544 Y120.933 E0.03954
G1 X242.251 Y120.736 E0.03889
G1 X241.945 Y120.564 E0.03873
G1 X241.626 Y120.418 E0.03867
G1 X241.296 Y120.299 E0.03867
G1 X240.957 Y120.207 E0.03867
G1 X240.612 Y120.143 E0.03867
G1 X240.263 Y120.107 E0.03867
G1 X239.912 Y120.100 E0.03867
G1 X239.562 Y120.122 E0.03867
G1 X239.215 Y120.172 E0.03867
G1 X238.873 Y120.250 E0.03867
G1 X238.538 Y120.355 E0.03867
G1 X238.213 Y120.488 E0.03867
G1 X237.900 Y120.647 E0.03869
G1 X237.601 Y120.831 E0.03879
G1 X237.315 Y121.042 E0.03910
G1 X237.044 Y121.283 E0.03997
G1 X236.794 Y121.562 E0.04128
G1 X236.576 Y121.883 E0.04280
G1 X236.410 Y122.236 E0.04301
G1 X236.312 Y122.551 E0.03634
G1 X236.224 Y122.805 E0.02957
G1 X236.116 Y123.085 E0.03314
G1 X236.022 Y123.406 E0.03687
G1 X235.954 Y123.734 E0.03687
G1 X235.913 Y124.066 E0.03687
G1 X235.899 Y124.400 E0.03687
G1 X235.913 Y124.734 E0.03687
G1 X235.954 Y125.066 E0.03687
G1 X236.022 Y125.394 E0.03687
G1 X236.116 Y125.715 E0.03687
G1 X236.236 Y126.027 E0.03687
G1 X236.381 Y126.328 E0.03687
G1 X236.550 Y126.617 E0.03687
G1 X236.743 Y126.891 E0.03687
G1 X236.956 Y127.148 E0.03687
G1 X237.191 Y127.387 E0.03687
G1 X237.443 Y127.606 E0.03687
G1 X237.713 Y127.804 E0.03687
G1 X237.998 Y127.979 E0.03687
G1 X238.297 Y128.130 E0.03687
G1 X238.606 Y128.256 E0.03687
G1 X238.925 Y128.357 E0.03687
G1 X239.251 Y128.432 E0.03687
G1 X239.582 Y128.479 E0.03687
G1 X239.916 Y128.500 E0.03687
G1 X240.251 Y128.493 E0.03687
G1 X240.584 Y128.459 E0.03687
G1 X240.912 Y128.398 E0.03687
G1 X241.235 Y128.310 E0.03687
G1 X241.550 Y128.196 E0.03687
G1 X241.854 Y128.057 E0.03687
G1 X242.146 Y127.894 E0.03687
G1 X242.424 Y127.708 E0.03687
G1 X242.685 Y127.499 E0.03687
G1 X242.929 Y127.270 E0.03687
G1 X243.153 Y127.021 E0.03687
G1 X243.356 Y126.756 E0.03687
G1 X243.537 Y126.474 E0.03687
G1 X243.694 Y126.179 E0.03687
G1 X243.827 Y125.872 E0.03687
G1 X243.934 Y125.555 E0.03687
G1 X244.015 Y125.231 E0.03687
G1 X244.070 Y124.901 E0.03687
G1 X244.097 Y124.567 E0.03687
G1 X244.097 Y124.233 E0.03687
G1 X244.070 Y123.899 E0.03687
G1 X244.015 Y123.569 E0.03687
G1 X243.934 Y123.245 E0.03687
G1 X243.827 Y122.928 E0.03685
G1 X243.722 Y122.684 E0.02929
G1 X243.648 Y122.407 E0.03160
G1 X243.511 Y122.060 E0.04108
G1 X243.410 Y121.878 E0.02299
G1 X243.484 Y121.371 F10800
;WIPE_START
G1 F8640
G1 X243.083 Y121.418 E-0.37183
G1 X242.823 Y121.159 E-0.24268
G1 X242.544 Y120.933 E-0.23665
G1 X242.251 Y120.736 E-0.23279
G1 X242.114 Y120.659 E-0.10354
;WIPE_END
G1 E-0.06250 F6000
G1 Z0.900000 F10800
G1 X249.600 Y115.950
G1 Z0.250000
G1 E1.25000 F6000
G1 F1200
G1 X249.600 Y85.572 E3.34809
G1 X249.600 Y85.075 E0.05475
G1 X249.593 Y84.561 E0.05660
G1 X249.556 Y84.029 E0.05879
G1 X249.396 Y82.923 E0.12317
G1 X233.204 Y82.923 E1.78466
G1 X233.044 Y84.029 E0.12317
G1 X233.007 Y84.561 E0.05879
G1 X233.000 Y85.075 E0.05660
G1 X233.000 Y85.572 E0.05475
G1 X233.000 Y115.950 E3.34809
G1 X249.420 Y115.950 E1.80970
G1 X250.800 Y115.950 F10800
;WIPE_START
G1 F8640
G1 X249.431 Y114.150 E-1.18750
;WIPE_END
G1 E-0.06250 F6000
G1 Z0.900000 F10800
G1 X244.700 Y118.100
G1 Z0.250000
G1 E1.25000 F6000
G1 F1200
G1 X244.700 Y119.817 E0.18921
G1 X244.700 Y120.277 E0.05070
G1 X244.703 Y120.745 E0.05165
G1 X244.720 Y121.233 E0.05378
G1 X244.771 Y121.730 E0.05512
G1 X244.849 Y122.195 E0.05190
G1 X244.900 Y122.604 E0.04542
G1 X244.900 Y124.390 E0.19689
G1 X244.890 Y124.714 E0.03568
G1 X244.859 Y125.027 E0.03462
G1 X244.809 Y125.337 E0.03462
G1 X244.739 Y125.643 E0.03462
G1 X244.650 Y125.944 E0.03462
G1 X244.542 Y126.239 E0.03462
G1 X244.414 Y126.526 E0.03462
G1 X244.269 Y126.804 E0.03462
G1 X244.106 Y127.073 E0.03462
G1 X243.927 Y127.331 E0.03462
G1 X243.731 Y127.576 E0.03462
G1 X243.520 Y127.809 E0.03462
G1 X243.294 Y128.027 E0.03462
G1 X243.055 Y128.231 E0.03462
G1 X242.803 Y128.419 E0.03462
G1 X242.540 Y128.590 E0.03462
G1 X242.266 Y128.744 E0.03462
G1 X241.983 Y128.880 E0.03462
G1 X241.692 Y128.998 E0.03462
G1 X241.394 Y129.097 E0.03462
G1 X241.090 Y129.177 E0.03462
G1 X240.782 Y129.237 E0.03462
G1 X240.470 Y129.277 E0.03462
G1 X240.157 Y129.297 E0.03462
G1 X239.843 Y129.297 E0.03462
G1 X239.530 Y129.277 E0.03462
G1 X239.218 Y129.237 E0.03462
G1 X238.910 Y129.177 E0.03462
G1 X238.606 Y129.097 E0.03462
G1 X238.308 Y128.998 E0.03462
G1 X238.017 Y128.880 E0.03462
G1 X237.734 Y128.744 E0.03462
G1 X237.460 Y128.590 E0.03462
G1 X237.197 Y128.419 E0.03462
G1 X236.945 Y128.231 E0.03462
G1 X236.706 Y128.027 E0.03462
G1 X236.480 Y127.809 E0.03462
G1 X236.269 Y127.576 E0.03462
G1 X236.073 Y127.331 E0.03462
G1 X235.894 Y127.073 E0.03462
G1 X235.731 Y126.804 E0.03462
G1 X235.586 Y126.526 E0.03462
G1 X235.458 Y126.239 E0.03462
G1 X235.350 Y125.944 E0.03462
G1 X235.261 Y125.643 E0.03462
G1 X235.191 Y125.337 E0.03462
G1 X235.141 Y125.027 E0.03462
G1 X235.110 Y124.714 E0.03462
G1 X235.100 Y124.390 E0.03568
G1 X235.100 Y122.603 E0.19695
G1 X235.150 Y122.195 E0.04535
G1 X235.229 Y121.731 E0.05185
G1 X235.280 Y121.233 E0.05518
G1 X235.297 Y120.745 E0.05379
G1 X235.300 Y120.277 E0.05164
G1 X235.300 Y119.817 E0.05070
G1 X235.300 Y118.100 E0.18921
G1 X226.650 Y118.100 E0.95334
G1 X226.650 Y81.900 E3.98971
G1 X230.815 Y81.900 E0.45903
G1 X231.312 Y81.900 E0.05482
G1 X231.815 Y81.898 E0.05537
G1 X232.329 Y81.888 E0.05674
G1 X232.853 Y81.855 E0.05783
G1 X233.346 Y81.800 E0.05461
G1 X233.809 Y81.777 E0.05114
G1 X234.290 Y81.777 E0.05306
G1 X248.680 Y81.777 E1.58589
G1 X249.144 Y81.791 E0.05117
G1 X249.626 Y81.843 E0.05350
G1 X250.147 Y81.883 E0.05751
G1 X250.665 Y81.897 E0.05710
G1 X251.169 Y81.900 E0.05565
G1 X251.667 Y81.900 E0.05488
G1 X253.350 Y81.900 E0.18544
G1 X253.350 Y118.100 E3.98971
G1 X244.880 Y118.100 E0.93350
G1 X243.500 Y118.100 F10800
G1 X244.084 Y117.025
;TYPE:Gap fill
;WIDTH:1.1437
G1 F1200
G1 X250.216 Y117.025 E0.64271
;WIPE_START
G1 F8640
G1 X248.416 Y117.025 E-1.18750
;WIPE_END
G1 E-0.06250 F6000
G1 Z0.900000 F10800
G1 X243.181 Y119.614
G1 Z0.250000
G1 E1.25000 F6000
;TYPE:Solid infill
;WIDTH:0.96
G1 F1800
G1 X241.466 Y117.899 E0.21387
G1 X239.845 Y117.899 E0.14294
G1 X240.101 Y118.155 E0.03194
G1 X239.872 Y118.150 E0.02012
G1 X239.363 Y118.181 E0.04496
G1 X238.859 Y118.254 E0.04496
G1 X238.631 Y118.306 E0.02063
G1 X238.223 Y117.899 E0.05079
G1 X237.249 Y117.899 E0.08593
G1 X237.249 Y118.545 E0.05701
G1 X237.809 Y119.105 E0.06983
;WIPE_START
G1 F8640
G1 X237.249 Y118.545 E-0.52253
G1 X237.249 Y117.899 E-0.42657
G1 X237.610 Y117.899 E-0.23840
;WIPE_END
G1 E-0.06250 F6000
G1 Z0.900000 F10800
G1 X235.916 Y117.025
G1 Z0.250000
G1 E1.25000 F6000
;TYPE:Gap fill
;WIDTH:1.1437
G1 F1200
G1 X232.384 Y117.025 E0.37023
;WIPE_START
G1 F8640
G1 X234.184 Y117.025 E-1.18750
;WIPE_END
G1 E-0.06250 F6000
G1 Z0.900000 F10800
G1 X229.390 Y83.332
G1 Z0.250000
G1 E1.25000 F6000
;TYPE:Solid infill
;WIDTH:1.04673
G1 F1800
G1 X231.053 Y84.995 E0.22604
G1 X231.052 Y85.062 E0.00648
G1 X231.052 Y86.615 E0.14929
G1 X228.599 Y84.162 E0.33348
G1 X228.599 Y85.783 E0.15585
G1 X231.052 Y88.236 E0.33348
G1 X231.052 Y89.857 E0.15585
G1 X228.599 Y87.404 E0.33348
G1 X228.599 Y89.026 E0.15585
G1 X231.052 Y91.478 E0.33348
G1 X231.052 Y93.100 E0.15585
G1 X228.599 Y90.647 E0.33347
G1 X228.599 Y92.268 E0.15585
G1 X231.052 Y94.721 E0.33347
G1 X231.052 Y96.342 E0.15585
G1 X228.599 Y93.889 E0.33347
G1 X228.599 Y95.510 E0.15585
G1 X231.051 Y97.963 E0.33346
G1 X231.051 Y99.584 E0.15585
G1 X228.599 Y97.132 E0.33346
G1 X228.599 Y98.753 E0.15585
G1 X231.051 Y101.205 E0.33346
G1 X231.051 Y102.827 E0.15585
G1 X228.599 Y100.374 E0.33345
G1 X228.599 Y101.995 E0.15585
G1 X231.051 Y104.448 E0.33345
G1 X231.051 Y106.069 E0.15585
G1 X228.599 Y103.616 E0.33345
G1 X228.599 Y105.237 E0.15585
G1 X231.051 Y107.690 E0.33345
G1 X231.051 Y109.311 E0.15585
G1 X228.599 Y106.859 E0.33344
G1 X228.599 Y108.480 E0.15585
G1 X231.051 Y110.932 E0.33344
G1 X231.051 Y112.554 E0.15585
G1 X228.599 Y110.101 E0.33344
G1 X228.599 Y111.722 E0.15585
G1 X231.051 Y114.175 E0.33343
G1 X231.051 Y115.796 E0.15585
G1 X228.599 Y113.343 E0.33343
G1 X228.599 Y114.965 E0.15585
G1 X230.301 Y116.667 E0.23147
; INIT stop printing object Keychain id:0 copy 0
;LAYER_CHANGE
;Z:1
;HEIGHT:0.75
; BEFORE LAYER CHANGE
; stop printing object Keychain id:0 copy 0
G1 Z1.000000 F10800
; AFTER LAYER CHANGE
G1 Z1
M104 S220 ; set temperature
; INIT printing object Keychain id:0 copy 0
; printing object Keychain id:0 copy 0
G1 X232.026 Y117.126
;TYPE:Internal perimeter
;WIDTH:1.35
G1 F3600
M204 P800
G1 X227.624 Y117.126 E1.50965
G1 X227.624 Y82.874 E11.74685
G1 X232.026 Y82.874 E1.50965
G1 X232.026 Y116.946 E11.68512
;WIPE_START
G1 F8640
M204 P1000
G1 X230.227 Y117.019 E-1.18750
;WIPE_END
G1 E-0.06250 F6000
G1 Z1.650000 F10800
G1 X236.274 Y116.946
G1 Z1.000000
G1 E1.25000 F6000
G1 F3600
M204 P800
G1 X236.274 Y116.924 E0.00751
G1 X243.726 Y116.924 E2.55567
G1 X243.726 Y120.553 E1.24456
G1 X242.761 Y119.905 E0.39868
G1 X242.385 Y119.695 E0.14760
G1 X241.994 Y119.516 E0.14759
G1 X241.589 Y119.370 E0.14759
G1 X241.174 Y119.257 E0.14759
G1 X240.751 Y119.178 E0.14760
G1 X240.323 Y119.134 E0.14759
G1 X239.892 Y119.126 E0.14759
G1 X239.463 Y119.152 E0.14760
G1 X239.037 Y119.213 E0.14760
G1 X238.617 Y119.309 E0.14759
G1 X238.207 Y119.439 E0.14759
G1 X237.808 Y119.601 E0.14760
G1 X237.425 Y119.796 E0.14760
G1 X236.274 Y120.502 E0.46308
G1 X236.274 Y117.126 E1.15800
;WIPE_START
G1 F8640
M204 P1000
G1 X236.274 Y116.924 E-0.13320
G1 X237.872 Y116.924 E-1.05430
